!!!COM: Mozart, Wolfgang Amadeus
!!!OPR: Symphony in C Major
!!!OTL:
!!!OMV: 2
!!!SCT: K 425
!!!SCA: Chronologisch-thematisches Verzeichnis sämtlicher Tonwerke Wolfgang Amade Mozarts (L. von Köchel; 1862, 2/1905, 3/1937, 1947)
!!!YOR: Breitkopf & Härtel Edition
!!!EED: Frances Bennion
!!!ENC: Frances Bennion
!!!CDT: 1756/1/27/-1791/12/5/
!!!OCY: Österreich
!!!YEC: Copyright (c) 1994, 2000 Center for Computer Assisted Research in the Humanities
!!!YEM: Rights to all derivative editions reserved.
!!!YEM: Refer to licensing agreement for further details.
!!!YEN: United States of America
**kern	**kern	**kern	**kern	**kern	**kern	**kern	**kern	**kern	**kern	**kern	**kern	**kern	**kern
*k[b-]	*k[b-]	*k[b-]	*k[b-]	*k[b-]	*k[b-]	*k[b-]	*k[b-]	*k[b-]	*k[b-]	*k[b-]	*k[b-]	*k[b-]	*k[b-]
*F:	*F:	*F:	*F:	*F:	*F:	*F:	*F:	*F:	*F:	*F:	*F:	*F:	*F:
*clefF	*clefF	*clefF	*clefC3	*clefF4	*clefF4	*clefF	*clefF4	*clefF4	*clefF	*clefF	*clefF	*clefF	*clefF4
*M6/8	*M6/8	*M6/8	*M6/8	*M6/8	*M6/8	*M6/8	*M6/8	*M6/8	*M6/8	*M6/8	*M6/8	*M6/8	*M6/8
=1	=1	=1	=1	=1	=1	=1	=1	=1	=1	=1	=1	=1	=1
2.r	8.cc	8.a	4f	4F	4F	2.r	2.r	2.r	2.r	2.r	2.r	2.r	2.r
.	16dd	16b-	.	.	.	.	.	.	.	.	.	.	.
.	8cc	8a	8f	8F	8F	.	.	.	.	.	.	.	.
.	4aa	4cc	4f	4F	4F	.	.	.	.	.	.	.	.
.	32gg	8a	8f	8F	8F	.	.	.	.	.	.	.	.
.	32ff	.	.	.	.	.	.	.	.	.	.	.	.
.	32ee	.	.	.	.	.	.	.	.	.	.	.	.
.	32dd	.	.	.	.	.	.	.	.	.	.	.	.
=2	=2	=2	=2	=2	=2	=2	=2	=2	=2	=2	=2	=2	=2
2.r	8cc	4d	4g	4G	4G	2.r	2.r	2.r	2.r	2.r	2.r	2.r	2.r
.	8b-	.	.	.	.	.	.	.	.	.	.	.	.
.	8b-	8d	8g	8F	8F	.	.	.	.	.	.	.	.
.	8b-	8c	8g	8E	8E	.	.	.	.	.	.	.	.
.	16r	8r	8r	8r	8r	.	.	.	.	.	.	.	.
.	16b-	.	.	.	.	.	.	.	.	.	.	.	.
.	16.b-	8g	8c	8E	8E	.	.	.	.	.	.	.	.
.	64a	.	.	.	.	.	.	.	.	.	.	.	.
.	64b-	.	.	.	.	.	.	.	.	.	.	.	.
=3	=3	=3	=3	=3	=3	=3	=3	=3	=3	=3	=3	=3	=3
2.r	8a	8f	8c	8F	8F	2.r	2.r	2.r	2.r	2.r	2.r	2.r	2.r
.	16r	8r	8r	8r	8r	.	.	.	.	.	.	.	.
.	16b-	.	.	.	.	.	.	.	.	.	.	.	.
.	16.b-	8f	8d	8D	8D	.	.	.	.	.	.	.	.
.	64a	.	.	.	.	.	.	.	.	.	.	.	.
.	64b-	.	.	.	.	.	.	.	.	.	.	.	.
.	8cc	8f	8c	8AA	8AA	.	.	.	.	.	.	.	.
.	8r	8r	8r	8r	8r	.	.	.	.	.	.	.	.
.	8dd	8f	8G	8BB-	8BB-	.	.	.	.	.	.	.	.
=4	=4	=4	=4	=4	=4	=4	=4	=4	=4	=4	=4	=4	=4
2.r	[6..f	8A	2C	2C	2C	2.r	2.r	2.r	2r	2r	2.r	2.r	2.r
.	.	8B-	.	.	.	.	.	.	.	.	.	.	.
.	.	8B	.	.	.	.	.	.	.	.	.	.	.
.	48f]	.	.	.	.	.	.	.	.	.	.	.	.
.	32g	.	.	.	.	.	.	.	.	.	.	.	.
.	32f	.	.	.	.	.	.	.	.	.	.	.	.
.	8e	8c	.	.	.	.	.	.	.	.	.	.	.
.	4r	4r	4r	4r	4r	.	.	.	8g	8G	.	.	.
.	.	.	.	.	.	.	.	.	8g	8G	.	.	.
=5	=5	=5	=5	=5	=5	=5	=5	=5	=5	=5	=5	=5	=5
2.ee	4bb-	16e	2.G 2.B-	8C	8C	2.b-	2.e	2.B-	[2.g	[2.G	[2.cc	[2.c	8C
.	.	16c	.	.	.	.	.	.	.	.	.	.	.
.	.	16B-	.	8E	8E	.	.	.	.	.	.	.	4r
.	.	16c	.	.	.	.	.	.	.	.	.	.	.
.	32aa	16e	.	8G	8G	.	.	.	.	.	.	.	.
.	32gg	.	.	.	.	.	.	.	.	.	.	.	.
.	32ff	16c	.	.	.	.	.	.	.	.	.	.	.
.	32ee	.	.	.	.	.	.	.	.	.	.	.	.
.	16dd	16e	.	8c	8c	.	.	.	.	.	.	.	8C
.	16cc	16c	.	.	.	.	.	.	.	.	.	.	.
.	8cc	16B-	.	4r	4r	.	.	.	.	.	.	.	8C
.	.	16c	.	.	.	.	.	.	.	.	.	.	.
.	8cc	16e	.	.	.	.	.	.	.	.	.	.	8C
.	.	16c	.	.	.	.	.	.	.	.	.	.	.
=6	=6	=6	=6	=6	=6	=6	=6	=6	=6	=6	=6	=6	=6
2.ff	8cc	16f	2.F 2.A	8F	8F	2.a	2.f	2.A	8g]	8G]	2.cc]	2.c]	4C
.	.	16c	.	.	.	.	.	.	.	.	.	.	.
.	8ff	16A	.	8C	8C	.	.	.	8cc	8c	.	.	.
.	.	16c	.	.	.	.	.	.	.	.	.	.	.
.	8aa	16f	.	8AA	8AA	.	.	.	8ee	8e	.	.	4r
.	.	16c	.	.	.	.	.	.	.	.	.	.	.
.	8ccc	16a	.	8FF	8FF	.	.	.	8gg	8g	.	.	.
.	.	16f	.	.	.	.	.	.	.	.	.	.	.
.	4r	16c	.	4r	4r	.	.	.	8ee	8e	.	.	8C
.	.	16f	.	.	.	.	.	.	.	.	.	.	.
.	.	16a	.	.	.	.	.	.	8cc	8c	.	.	8C
.	.	16f	.	.	.	.	.	.	.	.	.	.	.
=7	=7	=7	=7	=7	=7	=7	=7	=7	=7	=7	=7	=7	=7
2.ee	8.bb-	16e	2.B- 2.G	8C	8C	2.b-	2.e	2.B-	[2.g	[2.G	[2.cc	[2.c	8C
.	.	16c	.	.	.	.	.	.	.	.	.	.	.
.	.	16B-	.	8E	8E	.	.	.	.	.	.	.	4r
.	32ccc	16c	.	.	.	.	.	.	.	.	.	.	.
.	32bb-	.	.	.	.	.	.	.	.	.	.	.	.
.	32aa	16e	.	8G	8G	.	.	.	.	.	.	.	.
.	32gg	.	.	.	.	.	.	.	.	.	.	.	.
.	32ff	16c	.	.	.	.	.	.	.	.	.	.	.
.	32ee	.	.	.	.	.	.	.	.	.	.	.	.
.	8dd	16e	.	8c	8c	.	.	.	.	.	.	.	8C
.	.	16c	.	.	.	.	.	.	.	.	.	.	.
.	8cc	16B-	.	4r	4r	.	.	.	.	.	.	.	8C
.	.	16c	.	.	.	.	.	.	.	.	.	.	.
.	8cc	16e	.	.	.	.	.	.	.	.	.	.	8C
.	.	16c	.	.	.	.	.	.	.	.	.	.	.
=8	=8	=8	=8	=8	=8	=8	=8	=8	=8	=8	=8	=8	=8
2.ff	8cc	16f	2.A 2.F	8F	8F	2.a	2.f	2.A	8g]	8G]	2.cc]	2.c]	4C
.	.	16c	.	.	.	.	.	.	.	.	.	.	.
.	8ff	16A	.	8C	8C	.	.	.	8cc	8c	.	.	.
.	.	16c	.	.	.	.	.	.	.	.	.	.	.
.	8aa	16f	.	8AA	8AA	.	.	.	8ee	8e	.	.	2r
.	.	16c	.	.	.	.	.	.	.	.	.	.	.
.	8ccc	16a	.	8FF	8FF	.	.	.	8gg	8g	.	.	.
.	.	16f	.	.	.	.	.	.	.	.	.	.	.
.	4r	16c	.	4r	4r	.	.	.	8ee	8e	.	.	.
.	.	16f	.	.	.	.	.	.	.	.	.	.	.
.	.	16a	.	.	.	.	.	.	8cc	8c	.	.	.
.	.	16cc	.	.	.	.	.	.	.	.	.	.	.
=9	=9	=9	=9	=9	=9	=9	=9	=9	=9	=9	=9	=9	=9
2.r	8.dd	4.cc	4.f	4.B-	4.B-	2.r	4.B-	4.B-	2.r	2.r	2.r	2.r	2.r
.	16ee-	.	.	.	.	.	.	.	.	.	.	.	.
.	8dd	.	.	.	.	.	.	.	.	.	.	.	.
.	8dd	4.b-	4.g	4.G	4.G	.	4.G	4.G	.	.	.	.	.
.	8b-	.	.	.	.	.	.	.	.	.	.	.	.
.	8dd	.	.	.	.	.	.	.	.	.	.	.	.
=10	=10	=10	=10	=10	=10	=10	=10	=10	=10	=10	=10	=10	=10
4.bb-	8dd	8b-	8g	4.E	4.E	4.gg	4.E	4.E	4.dd	4.g	2.r	2.r	2.r
.	8cc	8b-	8g	.	.	.	.	.	.	.	.	.	.
.	8cc	8b-	8g	.	.	.	.	.	.	.	.	.	.
8aa	8.cc	8a	8f	8F	8F	8ff	8F	8F	8ee	8cc	.	.	.
4r	.	4r	4r	4r	4r	4r	4r	4r	4r	4r	.	.	.
.	16dd	.	.	.	.	.	.	.	.	.	.	.	.
.	16ee	.	.	.	.	.	.	.	.	.	.	.	.
.	16ff	.	.	.	.	.	.	.	.	.	.	.	.
=11	=11	=11	=11	=11	=11	=11	=11	=11	=11	=11	=11	=11	=11
[4.ff	[4.f	16A	[3..C	8C	8C	[4.ff	8C	8C	[4.cc	4.e	[2.cc	[2.c	2.r
.	.	16c	.	.	.	.	.	.	.	.	.	.	.
.	.	16A	.	8C	8C	.	8C	8C	.	.	.	.	.
.	.	16c	.	.	.	.	.	.	.	.	.	.	.
.	.	16A	.	8C	8C	.	8C	8C	.	.	.	.	.
.	.	16c	.	.	.	.	.	.	.	.	.	.	.
4ff]	4f]	16B-	.	8C	8C	4ff]	8C	8C	4cc]	4.g	.	.	.
.	.	16c	.	.	.	.	.	.	.	.	.	.	.
.	.	16B-	.	8C	8C	.	8C	8C	.	.	.	.	.
.	.	16c	.	.	.	.	.	.	.	.	.	.	.
.	.	.	24C 24c]	.	.	.	.	.	.	.	.	.	.
16aa	16a	16B-	8e	8C	8C	8ee	8C	8C	16ee	.	.	.	.
16gg	16g	16c	.	.	.	.	.	.	16dd	.	.	.	.
=12	=12	=12	=12	=12	=12	=12	=12	=12	=12	=12	=12	=12	=12
8ff	8f	8A	8f	8F	8F	8ff	8F	8F	8cc	8e	8cc]	8c]	2.r
8cc	8c	8c	8A	8F	8F	8a	8F	8F	8e	8c	8cc	8c	.
8aa	8a	8c	8A	8F	8F	8cc	8F	8F	8e	8c	8cc	8c	.
8ff	8f	8c	8A	8F	8F	8a	8F	8F	8e	8c	8cc	8c	.
4r	4r	4r	4r	4r	4r	4r	4r	4r	4r	4r	4r	4r	.
=13	=13	=13	=13	=13	=13	=13	=13	=13	=13	=13	=13	=13	=13
2.r	8cc	8g	8e	8E	8E	2.r	2.r	2.r	2.r	2.r	2.r	2.r	2.r
.	8g	8g	8e	8E	8E	.	.	.	.	.	.	.	.
.	8ee	8g	8e	8E	8E	.	.	.	.	.	.	.	.
.	8cc	8g	8e	8E	8E	.	.	.	.	.	.	.	.
.	24r	4r	4r	4r	4r	.	.	.	.	.	.	.	.
.	24cc	.	.	.	.	.	.	.	.	.	.	.	.
.	24b	.	.	.	.	.	.	.	.	.	.	.	.
.	24cc	.	.	.	.	.	.	.	.	.	.	.	.
.	24dd	.	.	.	.	.	.	.	.	.	.	.	.
.	24ee	.	.	.	.	.	.	.	.	.	.	.	.
=14	=14	=14	=14	=14	=14	=14	=14	=14	=14	=14	=14	=14	=14
2.r	8ff	8r	8r	8r	8r	2.r	2.r	2.r	2.r	2.r	2.r	2.r	2.r
.	24r	8a	8d	8D	8D	.	.	.	.	.	.	.	.
.	24ff	.	.	.	.	.	.	.	.	.	.	.	.
.	24ee	.	.	.	.	.	.	.	.	.	.	.	.
.	24ff	4r	4r	4r	4r	.	.	.	.	.	.	.	.
.	24gg	.	.	.	.	.	.	.	.	.	.	.	.
.	24aa	.	.	.	.	.	.	.	.	.	.	.	.
.	8b	.	.	.	.	.	.	.	.	.	.	.	.
.	24r	8f	8d	8G	8G	.	.	.	.	.	.	.	.
.	24b	.	.	.	.	.	.	.	.	.	.	.	.
.	24a	.	.	.	.	.	.	.	.	.	.	.	.
.	24b	8r	8r	8r	8r	.	.	.	.	.	.	.	.
.	24cc	.	.	.	.	.	.	.	.	.	.	.	.
.	24dd	.	.	.	.	.	.	.	.	.	.	.	.
=15	=15	=15	=15	=15	=15	=15	=15	=15	=15	=15	=15	=15	=15
2.r	8ee	8r	8r	8r	8r	2.r	2.r	2.r	2.r	2.r	2.r	2.r	2.r
.	24r	8e	8c	8C	8C	.	.	.	.	.	.	.	.
.	24ee	.	.	.	.	.	.	.	.	.	.	.	.
.	24dd	.	.	.	.	.	.	.	.	.	.	.	.
.	24ee	4r	4r	4r	4r	.	.	.	.	.	.	.	.
.	24ff	.	.	.	.	.	.	.	.	.	.	.	.
.	24gg	.	.	.	.	.	.	.	.	.	.	.	.
.	4a	.	.	.	.	.	.	.	.	.	.	.	.
.	.	8d	8f	8F	8F	.	.	.	.	.	.	.	.
.	8dd	8a	8f#	8F#	8F#	.	.	.	.	.	.	.	.
=16	=16	=16	=16	=16	=16	=16	=16	=16	=16	=16	=16	=16	=16
4.r	4cc	4e	16g	4.G	4.G	4.r	4.r	4.r	4.r	4.r	4.r	4.r	4.r
.	.	.	16f#	.	.	.	.	.	.	.	.	.	.
.	.	.	16g	.	.	.	.	.	.	.	.	.	.
.	.	.	16f#	.	.	.	.	.	.	.	.	.	.
.	8b	8d	16g	.	.	.	.	.	.	.	.	.	.
.	.	.	16f#	.	.	.	.	.	.	.	.	.	.
4g	4r	4r	4.g	4r	4r	4g	4G	4GG	4dd	4dd	4g	4G	4GG
8r	16ff	8b	.	8F	8F	8r	8r	8r	8r	8r	8r	8r	8r
.	32ee	.	.	.	.	.	.	.	.	.	.	.	.
.	32dd	.	.	.	.	.	.	.	.	.	.	.	.
=17	=17	=17	=17	=17	=17	=17	=17	=17	=17	=17	=17	=17	=17
4.r	8.cc	4cc	[2.g	8E	8E	4.r	4.r	4.r	4.r	4.r	4.r	4.r	4.r
.	.	.	.	8C	8C	.	.	.	.	.	.	.	.
.	32dd	.	.	.	.	.	.	.	.	.	.	.	.
.	32ee	.	.	.	.	.	.	.	.	.	.	.	.
.	8dd	8b	.	8G	8G	.	.	.	.	.	.	.	.
4g	4r	4r	.	4r	4r	4g	4G	4GG	4dd	4dd	4g	4G	4GG
8r	16ff	8b	.	8F	8F	8r	8r	8r	8r	8r	8r	8r	8r
.	32ee	.	.	.	.	.	.	.	.	.	.	.	.
.	32dd	.	.	.	.	.	.	.	.	.	.	.	.
=18	=18	=18	=18	=18	=18	=18	=18	=18	=18	=18	=18	=18	=18
2.r	8.cc	4cc	4.g]	8E	8E	2.r	2.r	2.r	2.r	2.r	2.r	2.r	2.r
.	.	.	.	8C	8C	.	.	.	.	.	.	.	.
.	32dd	.	.	.	.	.	.	.	.	.	.	.	.
.	32ee	.	.	.	.	.	.	.	.	.	.	.	.
.	8dd	8b	.	8G	8G	.	.	.	.	.	.	.	.
.	8gg	4.r	4.r	4.r	4.r	.	.	.	.	.	.	.	.
.	8gg	.	.	.	.	.	.	.	.	.	.	.	.
.	8gg	.	.	.	.	.	.	.	.	.	.	.	.
=19	=19	=19	=19	=19	=19	=19	=19	=19	=19	=19	=19	=19	=19
4.ccc	4gg	16g	8e	8E	8E	4.gg	8E	8E	8g	8G	[2.cc	[2.c	2.r
.	.	16cc	.	.	.	.	.	.	.	.	.	.	.
.	.	16g	8e	8E	8E	.	8E	8E	8g	8G	.	.	.
.	.	16cc	.	.	.	.	.	.	.	.	.	.	.
.	8ccc	16g	8e	8E	8E	.	8E	8E	8g	8G	.	.	.
.	.	16cc	.	.	.	.	.	.	.	.	.	.	.
4.bb-	32ccc	16b-	8e	8E	8E	4.cc	8E	8E	8g	8G	.	.	.
.	16.bb-	.	.	.	.	.	.	.	.	.	.	.	.
.	.	16cc	.	.	.	.	.	.	.	.	.	.	.
.	32bb-	16b-	8e	8E	8E	.	8E	8E	8g	8G	.	.	.
.	16.gg#	.	.	.	.	.	.	.	.	.	.	.	.
.	.	16cc	.	.	.	.	.	.	.	.	.	.	.
.	32gg#	16b-	8e	8E	8E	.	8E	8E	8g	8G	.	.	.
.	16.aa	.	.	.	.	.	.	.	.	.	.	.	.
.	.	16cc	.	.	.	.	.	.	.	.	.	.	.
=20	=20	=20	=20	=20	=20	=20	=20	=20	=20	=20	=20	=20	=20
8aa	8aa	8a	8f	8F	8F	8cc	8F	8F	8g	8c	8cc]	8c]	2.r
2r	4r	4r	3..r	3..r	3..r	2r	2r	2r	2r	2r	2r	2r	.
.	16cc#	16c#	.	.	.	.	.	.	.	.	.	.	.
.	16dd	16d	.	.	.	.	.	.	.	.	.	.	.
.	16ee	16e	.	.	.	.	.	.	.	.	.	.	.
.	16ff	16f	.	.	.	.	.	.	.	.	.	.	.
8r	16gg	16g	.	.	.	8r	8r	8r	8r	8r	8r	8r	.
.	16aa	16a	.	.	.	.	.	.	.	.	.	.	.
.	.	.	24r	24r	24r	.	.	.	.	.	.	.	.
=21	=21	=21	=21	=21	=21	=21	=21	=21	=21	=21	=21	=21	=21
2.r	16aa	16a	16f	2.G	2.G	2.r	2.r	2.r	2.r	2.r	2.r	2.r	2.r
.	16gg	16g	16e	.	.	.	.	.	.	.	.	.	.
.	16ff	16f	16a	.	.	.	.	.	.	.	.	.	.
.	16ee	16e	16g	.	.	.	.	.	.	.	.	.	.
.	16dd	16d	16f	.	.	.	.	.	.	.	.	.	.
.	16cc	16c	16e	.	.	.	.	.	.	.	.	.	.
.	4cc	16c	4e	.	.	.	.	.	.	.	.	.	.
.	.	16e	.	.	.	.	.	.	.	.	.	.	.
.	.	16g	.	.	.	.	.	.	.	.	.	.	.
.	.	16e	.	.	.	.	.	.	.	.	.	.	.
.	16ee	16g	8B	.	.	.	.	.	.	.	.	.	.
.	16dd	16f	.	.	.	.	.	.	.	.	.	.	.
=22	=22	=22	=22	=22	=22	=22	=22	=22	=22	=22	=22	=22	=22
4.r	4cc	4e	4c	4C	4C	4.r	2.r	2.r	8r	8r	8r	8r	8r
.	.	.	.	.	.	.	.	.	8dd	8dd	8g	8G	8GG
.	8r	8r	8r	8r	8r	.	.	.	8dd	8dd	8g	8G	8GG
[4.gg	8g	24e-	8c	8C	8C	[4.g	.	.	[4.dd	[4.dd	8g	8G	8GG
.	.	24c	.	.	.	.	.	.	.	.	.	.	.
.	.	24e-	.	.	.	.	.	.	.	.	.	.	.
.	8cc	24g	8e-	8E-	8E-	.	.	.	.	.	8g	8G	8GG
.	.	24e-	.	.	.	.	.	.	.	.	.	.	.
.	.	24g	.	.	.	.	.	.	.	.	.	.	.
.	8b	24f	8g	8G	8G	.	.	.	.	.	8g	8G	8GG
.	.	24d	.	.	.	.	.	.	.	.	.	.	.
.	.	24f	.	.	.	.	.	.	.	.	.	.	.
=23	=23	=23	=23	=23	=23	=23	=23	=23	=23	=23	=23	=23	=23
2.gg_	8.cc	24e-	8cc	8c	8c	2.g_	2.r	2.r	2.dd_	2.dd_	8g	8G	8GG
.	.	24g	.	.	.	.	.	.	.	.	.	.	.
.	.	24f	.	.	.	.	.	.	.	.	.	.	.
.	.	24e-	8e-	8E-	8E-	.	.	.	.	.	8g	8G	8GG
.	.	24d	.	.	.	.	.	.	.	.	.	.	.
.	32dd	.	.	.	.	.	.	.	.	.	.	.	.
.	32ee-	24c	.	.	.	.	.	.	.	.	.	.	.
.	8dd	24B	8g	8G	8G	.	.	.	.	.	8g	8G	8GG
.	.	24A	.	.	.	.	.	.	.	.	.	.	.
.	.	24G	.	.	.	.	.	.	.	.	.	.	.
.	8gg	24e-	8c	8C	8C	.	.	.	.	.	8g	8G	8GG
.	.	24c	.	.	.	.	.	.	.	.	.	.	.
.	.	24e-	.	.	.	.	.	.	.	.	.	.	.
.	8cc	24g	8e-	8E-	8E-	.	.	.	.	.	8g	8G	8GG
.	.	24e-	.	.	.	.	.	.	.	.	.	.	.
.	.	24g	.	.	.	.	.	.	.	.	.	.	.
.	8b	24f	8g	8G	8G	.	.	.	.	.	8g	8G	8GG
.	.	24d	.	.	.	.	.	.	.	.	.	.	.
.	.	24f	.	.	.	.	.	.	.	.	.	.	.
=24	=24	=24	=24	=24	=24	=24	=24	=24	=24	=24	=24	=24	=24
4.gg]	8.cc	24e-	8cc	8c	8c	4.g]	2.r	2.r	4.dd]	4.dd]	8g	8G	8GG
.	.	24g	.	.	.	.	.	.	.	.	.	.	.
.	.	24f	.	.	.	.	.	.	.	.	.	.	.
.	.	24e-	8e-	8E-	8E-	.	.	.	.	.	8g	8G	8GG
.	.	24d	.	.	.	.	.	.	.	.	.	.	.
.	32dd	.	.	.	.	.	.	.	.	.	.	.	.
.	32ee-	24c	.	.	.	.	.	.	.	.	.	.	.
.	8dd	24B	8g	8G	8G	.	.	.	.	.	8g	8G	8GG
.	.	24A	.	.	.	.	.	.	.	.	.	.	.
.	.	24G	.	.	.	.	.	.	.	.	.	.	.
4.r	8gg	8g	4.r	4.r	4.r	4.r	.	.	4.r	4.r	4.r	4.r	4.r
.	8gg	8g	.	.	.	.	.	.	.	.	.	.	.
.	8gg	8g	.	.	.	.	.	.	.	.	.	.	.
=25	=25	=25	=25	=25	=25	=25	=25	=25	=25	=25	=25	=25	=25
4.gg	4gg	4g	16G	8E	8E	4.cc	8E	8E	8g	8G	[2.cc	[2.c	2.r
.	.	.	16c	.	.	.	.	.	.	.	.	.	.
.	.	.	16G	8E	8E	.	8E	8E	8g	8G	.	.	.
.	.	.	16c	.	.	.	.	.	.	.	.	.	.
.	8ccc	8cc	16G	8E	8E	.	8E	8E	8g	8G	.	.	.
.	.	.	16c	.	.	.	.	.	.	.	.	.	.
4.cc	32ccc	32cc	16B-	8E	8E	4.b-	8E	8E	8g	8G	.	.	.
.	16.bb-	16.b-	.	.	.	.	.	.	.	.	.	.	.
.	.	.	16c	.	.	.	.	.	.	.	.	.	.
.	32bb-	32b-	16B-	8E	8E	.	8E	8E	8g	8G	.	.	.
.	16.gg#	16.g#	.	.	.	.	.	.	.	.	.	.	.
.	.	.	16c	.	.	.	.	.	.	.	.	.	.
.	32gg#	32g#	16B-	8E	8E	.	8E	8E	8g	8G	.	.	.
.	16.aa	16.a	.	.	.	.	.	.	.	.	.	.	.
.	.	.	16c	.	.	.	.	.	.	.	.	.	.
=26	=26	=26	=26	=26	=26	=26	=26	=26	=26	=26	=26	=26	=26
8cc	8aa	8a	8A	8F	8F	8a	8F	8F	8g	8c	8cc]	8c]	2.r
2r	4r	4r	4r	3..r	3..r	2r	2r	2r	2r	2r	2r	2r	.
.	16aa	16a	16f	.	.	.	.	.	.	.	.	.	.
.	16gg#	16g#	16e	.	.	.	.	.	.	.	.	.	.
.	16aa	16a	16f	.	.	.	.	.	.	.	.	.	.
.	16bb	16b	16g	.	.	.	.	.	.	.	.	.	.
8r	16ccc	16cc	16a	.	.	8r	8r	8r	8r	8r	8r	8r	.
.	16aa	16a	16f	.	.	.	.	.	.	.	.	.	.
.	.	.	.	24r	24r	.	.	.	.	.	.	.	.
=27	=27	=27	=27	=27	=27	=27	=27	=27	=27	=27	=27	=27	=27
2.r	16ff#	16f#	16d#	[3..G	[3..G	2.r	2.r	2.r	2.r	2.r	2.r	2.r	2.r
.	16gg	16g	16e	.	.	.	.	.	.	.	.	.	.
.	16aa	16a	16f	.	.	.	.	.	.	.	.	.	.
.	16gg	16g	16e	.	.	.	.	.	.	.	.	.	.
.	16ff	16f	16d	.	.	.	.	.	.	.	.	.	.
.	16ee	16e	16c	.	.	.	.	.	.	.	.	.	.
.	16ee	16g	16e	.	.	.	.	.	.	.	.	.	.
.	16dd	16f	16d	.	.	.	.	.	.	.	.	.	.
.	8cc	8e	8c	.	.	.	.	.	.	.	.	.	.
.	.	.	.	24G]	24G]	.	.	.	.	.	.	.	.
.	8b	8d	8B	8G#	8G#	.	.	.	.	.	.	.	.
=28	=28	=28	=28	=28	=28	=28	=28	=28	=28	=28	=28	=28	=28
8r	4b	4f	4d	4.A	4.A	8r	4f	4d	2.ee	2.e	2.r	2.r	2.r
8gg#	.	.	.	.	.	8g#	.	.	.	.	.	.	.
8gg	8cc#	8g	8e	.	.	8g	8e	8c#	.	.	.	.	.
8r	4cc#	4g	4e	4.D	4.D	8r	4g	4e	.	.	.	.	.
8gg	.	.	.	.	.	8g	.	.	.	.	.	.	.
8ff#	8dd	8a	8f#	.	.	8f#	8f#	8d	.	.	.	.	.
=29	=29	=29	=29	=29	=29	=29	=29	=29	=29	=29	=29	=29	=29
8aa	8ff	8a	8d	8BB	8BB	8ff	2.r	2.r	2.r	2.r	2.r	2.r	2.r
8r	8r	8r	8r	8r	8r	8r	.	.	.	.	.	.	.
8gg	8ee	8g	8e	8C	8C	8ee	.	.	.	.	.	.	.
8ff	8dd	8f	8A	8F	8F	8dd	.	.	.	.	.	.	.
8ee	8cc	8e	8G	8G	8G	8cc	.	.	.	.	.	.	.
8dd	8b	8d	8F	8G#	8G#	8b	.	.	.	.	.	.	.
=30	=30	=30	=30	=30	=30	=30	=30	=30	=30	=30	=30	=30	=30
8r	4b	4f	4d	4.A	4.A	8r	4f	4d	2.ee	2.e	2.r	2.r	2.r
8gg#	.	.	.	.	.	8g#	.	.	.	.	.	.	.
8gg	8cc#	8g	8e	.	.	8g	8e	8c#	.	.	.	.	.
8r	4cc#	4g	4e	4.D	4.D	8r	4g	4e	.	.	.	.	.
8gg	.	.	.	.	.	8g	.	.	.	.	.	.	.
8ff#	8dd	8a	8f#	.	.	8f#	8f#	8d	.	.	.	.	.
=31	=31	=31	=31	=31	=31	=31	=31	=31	=31	=31	=31	=31	=31
8aa	8ff	8a	8d	8BB	8BB	8ff	2.r	2.r	2.r	2.r	2.r	2.r	2.r
8r	8r	8r	8r	8r	8r	8r	.	.	.	.	.	.	.
8gg	8ee	8g	8e	8C	8C	8ee	.	.	.	.	.	.	.
8ff	8dd	8f	8A	8F	8F	8dd	.	.	.	.	.	.	.
8ee	8cc	8e	8G	8G	8G	8cc	.	.	.	.	.	.	.
8dd	8b	8d	8G	8GG	8GG	8b	.	.	.	.	.	.	.
=32	=32	=32	=32	=32	=32	=32	=32	=32	=32	=32	=32	=32	=32
4cc	4cc	4e	4G	4C	4C	4cc	8r	8r	8r	8r	8r	8r	8r
.	.	.	.	.	.	.	8G	8G	8dd	8dd	8g	8G	8GG
2r	2r	2r	2r	2r	2r	2r	8G	8G	8dd	8dd	8g	8G	8GG
.	.	.	.	.	.	.	8G	8G	8dd	8dd	8g	8G	8GG
.	.	.	.	.	.	.	8G	8G	8dd	8dd	8g	8G	8GG
.	.	.	.	.	.	.	8G	8G	8dd	8dd	8g	8G	8GG
=33	=33	=33	=33	=33	=33	=33	=33	=33	=33	=33	=33	=33	=33
2.ff	4.ddd	24G	8G	8GG	8GG	4.b	[2.G	[2.GG	[2.dd	[2.dd	[2.g	[2.G	2.GG
.	.	24d	.	.	.	.	.	.	.	.	.	.	.
.	.	24f	.	.	.	.	.	.	.	.	.	.	.
.	.	24g	8g	8G	8G	.	.	.	.	.	.	.	.
.	.	24f	.	.	.	.	.	.	.	.	.	.	.
.	.	24d	.	.	.	.	.	.	.	.	.	.	.
.	.	24g	8g	8G	8G	.	.	.	.	.	.	.	.
.	.	24f	.	.	.	.	.	.	.	.	.	.	.
.	.	24d	.	.	.	.	.	.	.	.	.	.	.
.	[6..bb	24G	8g	8G	8G	4.dd	.	.	.	.	.	.	.
.	.	24d	.	.	.	.	.	.	.	.	.	.	.
.	.	24f	.	.	.	.	.	.	.	.	.	.	.
.	.	24g	8g	8G	8G	.	.	.	.	.	.	.	.
.	.	24f	.	.	.	.	.	.	.	.	.	.	.
.	.	24d	.	.	.	.	.	.	.	.	.	.	.
.	.	24g	8g	8G	8G	.	.	.	.	.	.	.	.
.	48bb]	24f	.	.	.	.	.	.	.	.	.	.	.
.	32aa	.	.	.	.	.	.	.	.	.	.	.	.
.	32bb	24d	.	.	.	.	.	.	.	.	.	.	.
=34	=34	=34	=34	=34	=34	=34	=34	=34	=34	=34	=34	=34	=34
4ee	4ccc	4e	4c	4C	4C	4cc	8G]	8GG]	8dd]	8dd]	8g]	8G]	8C
.	.	.	.	.	.	.	8G	8GG	8dd	8dd	8g	8G	8GG
2r	2r	2r	2r	2r	2r	2r	8G	8GG	8dd	8dd	8g	8G	8GG
.	.	.	.	.	.	.	8G	8GG	8dd	8dd	8g	8G	8GG
.	.	.	.	.	.	.	8G	8GG	8dd	8dd	8g	8G	8GG
.	.	.	.	.	.	.	8G	8GG	8dd	8dd	8g	8G	8GG
=35	=35	=35	=35	=35	=35	=35	=35	=35	=35	=35	=35	=35	=35
2.ff	4.ddd	24G	8G	8GG	8GG	4.b	2.G	2.GG	2.dd	2.dd	2.g	2.G	2.GG
.	.	24d	.	.	.	.	.	.	.	.	.	.	.
.	.	24f	.	.	.	.	.	.	.	.	.	.	.
.	.	24g	8g	8G	8G	.	.	.	.	.	.	.	.
.	.	24f	.	.	.	.	.	.	.	.	.	.	.
.	.	24d	.	.	.	.	.	.	.	.	.	.	.
.	.	24g	8g	8G	8G	.	.	.	.	.	.	.	.
.	.	24f	.	.	.	.	.	.	.	.	.	.	.
.	.	24d	.	.	.	.	.	.	.	.	.	.	.
.	[6..bb	24G	8g	8G	8G	4.dd	.	.	.	.	.	.	.
.	.	24d	.	.	.	.	.	.	.	.	.	.	.
.	.	24f	.	.	.	.	.	.	.	.	.	.	.
.	.	24g	8g	8G	8G	.	.	.	.	.	.	.	.
.	.	24f	.	.	.	.	.	.	.	.	.	.	.
.	.	24d	.	.	.	.	.	.	.	.	.	.	.
.	.	24g	8g	8G	8G	.	.	.	.	.	.	.	.
.	48bb]	24f	.	.	.	.	.	.	.	.	.	.	.
.	32aa	.	.	.	.	.	.	.	.	.	.	.	.
.	32bb	24d	.	.	.	.	.	.	.	.	.	.	.
=36	=36	=36	=36	=36	=36	=36	=36	=36	=36	=36	=36	=36	=36
8ee	8ccc	8e	8g	8C	8C	8cc	8G	8GG	8dd	8g	8e	8c	8C
8ccc	8cc	8e	8g	8C	8C	8ee	8C	8C	8dd	8g	8e	8c	8C
8ccc	8cc	8e	8g	8C	8C	8ee	8C	8C	8dd	8g	8e	8c	8C
8ccc	8cc	8e	8g	8C	8C	8ee	8C	8C	8dd	8g	8e	8c	8C
4r	4r	4r	4r	4r	4r	4r	4r	4r	4r	4r	4r	4r	4r
=37	=37	=37	=37	=37	=37	=37	=37	=37	=37	=37	=37	=37	=37
2.r	8.g	8.e	2c	2c	2.r	2.r	2.r	2.r	2.r	2.r	2.r	2.r	2.r
.	16a	16f	.	.	.	.	.	.	.	.	.	.	.
.	8g	8e	.	.	.	.	.	.	.	.	.	.	.
.	8ee	[4.g	.	.	.	.	.	.	.	.	.	.	.
.	8dd	.	8f	8d	.	.	.	.	.	.	.	.	.
.	8cc	.	8e	8e	.	.	.	.	.	.	.	.	.
=38	=38	=38	=38	=38	=38	=38	=38	=38	=38	=38	=38	=38	=38
2.r	8b	8g]	8f	8d	2.r	2.r	2.r	2.r	2.r	2.r	2.r	2.r	2.r
.	8b	8g	8f	8d	.	.	.	.	.	.	.	.	.
.	8b	8g	8f	8d	.	.	.	.	.	.	.	.	.
.	8b	8g	8f	8d	.	.	.	.	.	.	.	.	.
.	16r	4r	4r	4r	.	.	.	.	.	.	.	.	.
.	16dd	.	.	.	.	.	.	.	.	.	.	.	.
.	16ff	.	.	.	.	.	.	.	.	.	.	.	.
.	16dd	.	.	.	.	.	.	.	.	.	.	.	.
=39	=39	=39	=39	=39	=39	=39	=39	=39	=39	=39	=39	=39	=39
2.r	8cc#	8b-	8g	8e	2.r	2.r	2.r	2.r	2.r	2.r	2.r	2.r	2.r
.	8cc#	8b-	8g	8e	.	.	.	.	.	.	.	.	.
.	8cc#	8b-	8g	8e	.	.	.	.	.	.	.	.	.
.	8cc#	8b-	8g	8e	.	.	.	.	.	.	.	.	.
.	16r	4r	4r	4r	.	.	.	.	.	.	.	.	.
.	16ee	.	.	.	.	.	.	.	.	.	.	.	.
.	16gg	.	.	.	.	.	.	.	.	.	.	.	.
.	16ee	.	.	.	.	.	.	.	.	.	.	.	.
=40	=40	=40	=40	=40	=40	=40	=40	=40	=40	=40	=40	=40	=40
2.r	8dd	8r	8r	8r	2.r	2.r	2.r	2.r	2.r	2.r	2.r	2.r	2.r
.	16r	16a	8f	8f	.	.	.	.	.	.	.	.	.
.	16ff	16dd	.	.	.	.	.	.	.	.	.	.	.
.	16aa	16ff	8d	8d	.	.	.	.	.	.	.	.	.
.	16ff	16dd	.	.	.	.	.	.	.	.	.	.	.
.	8ee	8cc	8r	8r	.	.	.	.	.	.	.	.	.
.	16r	16r	8g	8g	.	.	.	.	.	.	.	.	.
.	16ee	16cc	.	.	.	.	.	.	.	.	.	.	.
.	16ff	16dd	8f	8G	.	.	.	.	.	.	.	.	.
.	16dd	16b	.	.	.	.	.	.	.	.	.	.	.
=41	=41	=41	=41	=41	=41	=41	=41	=41	=41	=41	=41	=41	=41
8r	4cc	4cc	4e	4c	2.r	8r	8r	8r	8r	8r	8r	8r	8r
8ccc	.	.	.	.	.	8ee	8e	8G	8g	8G	8cc	8c	8C
8ccc	6..r	2r	2r	2r	.	8ee	8e	8G	8g	8G	8cc	8c	8C
8ccc	.	.	.	.	.	8ee	8e	8G	8g	8G	8cc	8c	8C
8ccc	.	.	.	.	.	8ee	8e	8G	8g	8G	8cc	8c	8C
.	48r	.	.	.	.	.	.	.	.	.	.	.	.
.	16ee	.	.	.	.	.	.	.	.	.	.	.	.
8ccc	16gg	.	.	.	.	8ee	8e	8G	8g	8G	8cc	8c	8C
.	16ee	.	.	.	.	.	.	.	.	.	.	.	.
=42	=42	=42	=42	=42	=42	=42	=42	=42	=42	=42	=42	=42	=42
2.bb	8aa-	16B	2.a- 2.f	8r	8r	2.dd	2.f	2.A-	[2.g	[2.G	[2.cc	[2.c	4C
.	.	16d	.	.	.	.	.	.	.	.	.	.	.
.	16r	16f	.	8C	8C	.	.	.	.	.	.	.	.
.	16ff	16d	.	.	.	.	.	.	.	.	.	.	.
.	16aa-	16f	.	8C	8C	.	.	.	.	.	.	.	2r
.	16ff	16d	.	.	.	.	.	.	.	.	.	.	.
.	8dd	16a-	.	8C	8C	.	.	.	.	.	.	.	.
.	.	16d	.	.	.	.	.	.	.	.	.	.	.
.	16r	16a-	.	8C	8C	.	.	.	.	.	.	.	.
.	16b	16d	.	.	.	.	.	.	.	.	.	.	.
.	16dd	16f	.	8C	8C	.	.	.	.	.	.	.	.
.	16b	16d	.	.	.	.	.	.	.	.	.	.	.
=43	=43	=43	=43	=43	=43	=43	=43	=43	=43	=43	=43	=43	=43
8ccc	8cc	8e	8g 8e	4C	4C	8ee	8e	8G	8g]	8G]	8cc]	8c]	8r
8ccc	4..r	3..r	3..r	.	.	8ee	8e	8G	8g	8G	8cc	8c	8C
8ccc	.	.	.	2r	2r	8ee	8e	8G	8g	8G	8cc	8c	8C
8ccc	.	.	.	.	.	8ee	8e	8G	8g	8G	8cc	8c	8C
8ccc	.	.	.	.	.	8ee	8e	8G	8g	8G	8cc	8c	8C
.	16ee	.	.	.	.	.	.	.	.	.	.	.	.
8ccc	16gg	.	.	.	.	8ee	8e	8G	8g	8G	8cc	8c	8C
.	16ee	.	.	.	.	.	.	.	.	.	.	.	.
.	.	24r	24r	.	.	.	.	.	.	.	.	.	.
=44	=44	=44	=44	=44	=44	=44	=44	=44	=44	=44	=44	=44	=44
2.bb	8aa-	16B	2.a- 2.f	8r	8r	2.dd	2.f	2.A-	[2.g	[2.G	[2.cc	[2.c	4C
.	.	16d	.	.	.	.	.	.	.	.	.	.	.
.	16r	16f	.	8C	8C	.	.	.	.	.	.	.	.
.	16ff	16d	.	.	.	.	.	.	.	.	.	.	.
.	16aa-	16f	.	8C	8C	.	.	.	.	.	.	.	2r
.	16ff	16d	.	.	.	.	.	.	.	.	.	.	.
.	8dd	16a-	.	8C	8C	.	.	.	.	.	.	.	.
.	.	16d	.	.	.	.	.	.	.	.	.	.	.
.	16r	16a-	.	8C	8C	.	.	.	.	.	.	.	.
.	16b	16d	.	.	.	.	.	.	.	.	.	.	.
.	16dd	16f	.	8C	8C	.	.	.	.	.	.	.	.
.	16b	16d	.	.	.	.	.	.	.	.	.	.	.
=45	=45	=45	=45	=45	=45	=45	=45	=45	=45	=45	=45	=45	=45
8ccc	8cc	8e	8e 8g	8C	8C	8ee	8e	8G	8g]	8G]	8cc]	8c]	2.r
2r	4r	3..r	3..r	16r	16r	2r	16r	2r	2r	2r	2r	2r	.
.	.	.	.	16C	16C	.	16C	.	.	.	.	.	.
.	.	.	.	16D	16D	.	16D	.	.	.	.	.	.
.	.	.	.	16E	16E	.	16E	.	.	.	.	.	.
.	4.r	.	.	16F	16F	.	16F	.	.	.	.	.	.
.	.	.	.	16G	16G	.	16G	.	.	.	.	.	.
.	.	.	.	16A-	16A-	.	16A-	.	.	.	.	.	.
.	.	.	.	16B-	16B-	.	16B-	.	.	.	.	.	.
8r	.	.	.	16c	16c	8r	16c	8r	8r	8r	8r	8r	.
.	.	.	.	16C	16C	.	16C	.	.	.	.	.	.
.	.	24r	24r	.	.	.	.	.	.	.	.	.	.
=46	=46	=46	=46	=46	=46	=46	=46	=46	=46	=46	=46	=46	=46
2.r	4.r	4.r	4.r	8D-	8D-	2.r	8D-	2.r	2.r	2.r	2.r	2.r	2.r
.	.	.	.	8d-	8d-	.	8d-	.	.	.	.	.	.
.	.	.	.	8C	8C	.	8C	.	.	.	.	.	.
.	4.dd-	4.f	[4.g	4.BB-	4.BB-	.	4.BB-	.	.	.	.	.	.
=47	=47	=47	=47	=47	=47	=47	=47	=47	=47	=47	=47	=47	=47
2.r	8g	8e	8g]	8C	8C	2.r	8C	2.r	2.r	2.r	2.r	2.r	2.r
.	4r	3..r	3..r	16r	16r	.	16r	.	.	.	.	.	.
.	.	.	.	16C	16C	.	16C	.	.	.	.	.	.
.	.	.	.	16D	16D	.	16D	.	.	.	.	.	.
.	.	.	.	16E	16E	.	16E	.	.	.	.	.	.
.	4.r	.	.	16F	16F	.	16F	.	.	.	.	.	.
.	.	.	.	16G	16G	.	16G	.	.	.	.	.	.
.	.	.	.	16A-	16A-	.	16A-	.	.	.	.	.	.
.	.	.	.	16B-	16B-	.	16B-	.	.	.	.	.	.
.	.	.	.	16c	16c	.	16c	.	.	.	.	.	.
.	.	.	.	16C	16C	.	16C	.	.	.	.	.	.
.	.	24r	24r	.	.	.	.	.	.	.	.	.	.
=48	=48	=48	=48	=48	=48	=48	=48	=48	=48	=48	=48	=48	=48
2.r	4.r	4.r	4.r	8D-	8D-	2.r	8D-	2.r	2.r	2.r	2.r	2.r	2.r
.	.	.	.	8d-	8d-	.	8d-	.	.	.	.	.	.
.	.	.	.	8C	8C	.	8C	.	.	.	.	.	.
.	4.ff	4.dd	[4.g	4.BB	4.BB	.	4.BB	.	.	.	.	.	.
=49	=49	=49	=49	=49	=49	=49	=49	=49	=49	=49	=49	=49	=49
2.r	8ee	8cc	4g]	8C	8C	2.r	8C	2.r	2.r	2.r	2.r	2.r	2.r
.	8dd-	8b-	.	8E	8E	.	2r	.	.	.	.	.	.
.	8cc	8a-	8c	8F	8F	.	.	.	.	.	.	.	.
.	16cc	16a-	8d-	8BB-	8BB-	.	.	.	.	.	.	.	.
.	16b-	16g	.	.	.	.	.	.	.	.	.	.	.
.	8a-	8f	8c	8C	8C	.	.	.	.	.	.	.	.
.	8g	8e	8B-	8C	8C	.	8r	.	.	.	.	.	.
=50	=50	=50	=50	=50	=50	=50	=50	=50	=50	=50	=50	=50	=50
2.r	8f	8f	8A-	8FF	8FF	2.r	2.r	2.r	2.r	2.r	2.r	2.r	2.r
.	16r	16r	3..r	3..r	3..r	.	.	.	.	.	.	.	.
.	16c	16c	.	.	.	.	.	.	.	.	.	.	.
.	16d	16d	.	.	.	.	.	.	.	.	.	.	.
.	16e	16e	.	.	.	.	.	.	.	.	.	.	.
.	16f	16f	.	.	.	.	.	.	.	.	.	.	.
.	16g	16g	.	.	.	.	.	.	.	.	.	.	.
.	16a-	16a-	.	.	.	.	.	.	.	.	.	.	.
.	16b-	16b-	.	.	.	.	.	.	.	.	.	.	.
.	16cc	16cc	.	.	.	.	.	.	.	.	.	.	.
.	16c	16c	.	.	.	.	.	.	.	.	.	.	.
.	.	.	24r	24r	24r	.	.	.	.	.	.	.	.
=51	=51	=51	=51	=51	=51	=51	=51	=51	=51	=51	=51	=51	=51
4.r	8d-	8d-	2r	2r	2r	4.r	2.r	2r	4.r	4.r	2.r	2.r	2.r
.	8dd-	8dd-	.	.	.	.	.	.	.	.	.	.	.
.	8c	8c	.	.	.	.	.	.	.	.	.	.	.
4.dd-	4.B-	4.B-	.	.	.	[4.b-	.	.	[4.dd	4.dd	.	.	.
.	.	.	8g	8G	8G	.	.	8G	.	.	.	.	.
.	.	.	8f	8F	8F	.	.	8F	.	.	.	.	.
=52	=52	=52	=52	=52	=52	=52	=52	=52	=52	=52	=52	=52	=52
8cc	8c	8c	8e	8E	8E	8b-]	2.r	8E	4dd]	4g	2.r	2.r	2.r
2r	16r	16r	8c	8C	8C	2r	.	8C	.	.	.	.	.
.	16c	16c	.	.	.	.	.	.	.	.	.	.	.
.	16d	16d	2r	2r	2r	.	.	2r	2r	2r	.	.	.
.	16e	16e	.	.	.	.	.	.	.	.	.	.	.
.	16f	16f	.	.	.	.	.	.	.	.	.	.	.
.	16g	16g	.	.	.	.	.	.	.	.	.	.	.
.	16a-	16a-	.	.	.	.	.	.	.	.	.	.	.
.	16b-	16b-	.	.	.	.	.	.	.	.	.	.	.
8r	16cc	16cc	.	.	.	8r	.	.	.	.	.	.	.
.	16c	16c	.	.	.	.	.	.	.	.	.	.	.
=53	=53	=53	=53	=53	=53	=53	=53	=53	=53	=53	=53	=53	=53
4.r	8d-	8d-	4.r	2r	2r	4.r	2.r	2.r	2.r	2.r	2.r	2.r	2.r
.	8dd-	8dd-	.	.	.	.	.	.	.	.	.	.	.
.	8c	8c	.	.	.	.	.	.	.	.	.	.	.
4.b-	4.B-	4.G	[4.e-	.	.	4.g	.	.	.	.	.	.	.
.	.	.	.	8E-	8E-	.	.	.	.	.	.	.	.
.	.	.	.	8D-	8D-	.	.	.	.	.	.	.	.
=54	=54	=54	=54	=54	=54	=54	=54	=54	=54	=54	=54	=54	=54
4.cc	4.c	4.A-	4.e-]	8C	8C	4.a-	2.r	2.r	2.r	2.r	2.r	2.r	2.r
.	.	.	.	8BB-	8BB-	.	.	.	.	.	.	.	.
.	.	.	.	8AA-	8AA-	.	.	.	.	.	.	.	.
16ee-	16e-	16c	8r	8D-	8D-	16cc	.	.	.	.	.	.	.
16dd-	16d-	16B-	.	.	.	16b-	.	.	.	.	.	.	.
8cc	8c	8A-	8E-	8E-	8E-	8a-	.	.	.	.	.	.	.
8b-	8B-	8G	8D-	8E-	8E-	8g	.	.	.	.	.	.	.
=55	=55	=55	=55	=55	=55	=55	=55	=55	=55	=55	=55	=55	=55
8a-	8A-	8A-	8C	8AA-	8AA-	8a-	2.r	2.r	2.r	2.r	2.r	2.r	2.r
2r	16r	8e-	8c	8A-	8A-	2r	.	.	.	.	.	.	.
.	16e-	.	.	.	.	.	.	.	.	.	.	.	.
.	16f	8e-	8c	8A-	8A-	.	.	.	.	.	.	.	.
.	16g	.	.	.	.	.	.	.	.	.	.	.	.
.	16a-	8e-	8c	8A-	8A-	.	.	.	.	.	.	.	.
.	16b-	.	.	.	.	.	.	.	.	.	.	.	.
.	16cc	8e-	8c	8A-	8A-	.	.	.	.	.	.	.	.
.	16dd-	.	.	.	.	.	.	.	.	.	.	.	.
8r	16ee-	8e-	8c	8A-	8A-	8r	.	.	.	.	.	.	.
.	16ff	.	.	.	.	.	.	.	.	.	.	.	.
=56	=56	=56	=56	=56	=56	=56	=56	=56	=56	=56	=56	=56	=56
4.gg-	8gg-	16r	16r	8A	8A	2.ee-	2.r	2.r	2.r	2.r	2.r	2.r	2.r
.	.	16e-	16c	.	.	.	.	.	.	.	.	.	.
.	8r	16g-	16e-	8A	8A	.	.	.	.	.	.	.	.
.	.	16e-	16c	.	.	.	.	.	.	.	.	.	.
.	8ee-	16g-	16e-	8A	8A	.	.	.	.	.	.	.	.
.	.	16e-	16c	.	.	.	.	.	.	.	.	.	.
[4.ff	8cc	16r	16r	8A	8A	.	.	.	.	.	.	.	.
.	.	16e-	16c	.	.	.	.	.	.	.	.	.	.
.	8r	16f	16e-	8A	8A	.	.	.	.	.	.	.	.
.	.	16e-	16c	.	.	.	.	.	.	.	.	.	.
.	8ff	16f	16e-	8A	8A	.	.	.	.	.	.	.	.
.	.	16e-	16c	.	.	.	.	.	.	.	.	.	.
=57	=57	=57	=57	=57	=57	=57	=57	=57	=57	=57	=57	=57	=57
8ff]	8dd	8d	8B-	8B-	8B-	8dd	2.r	2.r	2.r	2.r	2.r	2.r	2.r
2r	16r	8f	8d	8B-	8B-	2r	.	.	.	.	.	.	.
.	16f	.	.	.	.	.	.	.	.	.	.	.	.
.	16g	8f	8d	8B-	8B-	.	.	.	.	.	.	.	.
.	16a	.	.	.	.	.	.	.	.	.	.	.	.
.	16b-	8f	8d	8B-	8B-	.	.	.	.	.	.	.	.
.	16cc	.	.	.	.	.	.	.	.	.	.	.	.
.	16dd	8f	8d	8B-	8B-	.	.	.	.	.	.	.	.
.	16ee-	.	.	.	.	.	.	.	.	.	.	.	.
8r	16ff	8f	8d	8B-	8B-	8r	.	.	.	.	.	.	.
.	16gg	.	.	.	.	.	.	.	.	.	.	.	.
=58	=58	=58	=58	=58	=58	=58	=58	=58	=58	=58	=58	=58	=58
4.aa-	8aa-	16r	16r	8B	8B	2.ff	2.r	2.r	2.r	2.r	2.r	2.r	2.r
.	.	16f	16d	.	.	.	.	.	.	.	.	.	.
.	8r	16a-	16f	8B	8B	.	.	.	.	.	.	.	.
.	.	16f	16d	.	.	.	.	.	.	.	.	.	.
.	8ff	16a-	16f	8B	8B	.	.	.	.	.	.	.	.
.	.	16f	16d	.	.	.	.	.	.	.	.	.	.
[4.gg	8dd	16r	16r	8B	8B	.	.	.	.	.	.	.	.
.	.	16f	16d	.	.	.	.	.	.	.	.	.	.
.	8r	16g	16f	8B	8B	.	.	.	.	.	.	.	.
.	.	16f	16d	.	.	.	.	.	.	.	.	.	.
.	8gg	16g	16f	8B	8B	.	.	.	.	.	.	.	.
.	.	16f	16d	.	.	.	.	.	.	.	.	.	.
=59	=59	=59	=59	=59	=59	=59	=59	=59	=59	=59	=59	=59	=59
8gg]	8ee	8e	[3..c	8c	8c	8ee	2.r	2.r	2.r	2.r	2.r	2.r	2.r
2r	8cc	8a-	.	16r	16r	2r	.	.	.	.	.	.	.
.	.	.	.	16C	16C	.	.	.	.	.	.	.	.
.	4b-	4g	.	16D	16D	.	.	.	.	.	.	.	.
.	.	.	.	16E	16E	.	.	.	.	.	.	.	.
.	.	.	.	16F	16F	.	.	.	.	.	.	.	.
.	.	.	.	16G	16G	.	.	.	.	.	.	.	.
.	8a-	8f	.	16A-	16A-	.	.	.	.	.	.	.	.
.	.	.	.	16B-	16B-	.	.	.	.	.	.	.	.
.	.	.	24c]	.	.	.	.	.	.	.	.	.	.
8r	[8g	[8e	[8B-	16c	16c	8r	.	.	.	.	.	.	.
.	.	.	.	16C	16C	.	.	.	.	.	.	.	.
=60	=60	=60	=60	=60	=60	=60	=60	=60	=60	=60	=60	=60	=60
2.r	8g]	8e]	8B-]	8D-	8D-	2.r	2.r	2.r	2.r	2.r	2.r	2.r	2.r
.	8f	8f	8A-	8d-	8d-	.	.	.	.	.	.	.	.
.	8g	8f	8c	8C	8C	.	.	.	.	.	.	.	.
.	4g	4.f	4.d-	4.BB-	4.BB-	.	.	.	.	.	.	.	.
.	16b-	.	.	.	.	.	.	.	.	.	.	.	.
.	16a-	.	.	.	.	.	.	.	.	.	.	.	.
=61	=61	=61	=61	=61	=61	=61	=61	=61	=61	=61	=61	=61	=61
8r	8g	8e	8G	8C	8C	8r	2.r	2.r	2.r	2.r	2.r	2.r	2.r
8ccc	8cc	8a-	8r	16r	16r	8aa-	.	.	.	.	.	.	.
.	.	.	.	16C	16C	.	.	.	.	.	.	.	.
4bb-	4b-	4g	4.c	16D	16D	4gg	.	.	.	.	.	.	.
.	.	.	.	16E	16E	.	.	.	.	.	.	.	.
.	.	.	.	16F	16F	.	.	.	.	.	.	.	.
.	.	.	.	16G	16G	.	.	.	.	.	.	.	.
8aa-	8a-	8f	.	16A-	16A-	8ff	.	.	.	.	.	.	.
.	.	.	.	16B-	16B-	.	.	.	.	.	.	.	.
[8gg	[8g	[8e	[8B-	16c	16c	[8ee	.	.	.	.	.	.	.
.	.	.	.	16C	16C	.	.	.	.	.	.	.	.
=62	=62	=62	=62	=62	=62	=62	=62	=62	=62	=62	=62	=62	=62
8gg]	8g]	8e]	8B-]	8D-	8D-	8ee]	2.r	2.r	2.r	2.r	2.r	2.r	2.r
8ff	8f	8f	8A-	8d-	8d-	8ff	.	.	.	.	.	.	.
8gg	8g	8f	8c	8C	8C	8ff	.	.	.	.	.	.	.
4gg	4g	4.f	4.d	4.BB	4.BB	4.ff	.	.	.	.	.	.	.
16bb-	16b-	.	.	.	.	.	.	.	.	.	.	.	.
16aa-	16a-	.	.	.	.	.	.	.	.	.	.	.	.
=63	=63	=63	=63	=63	=63	=63	=63	=63	=63	=63	=63	=63	=63
8gg	16g	8e	8G	8C	8C	8ee	2.r	2.r	2.r	2.r	2.r	2.r	2.r
.	16b	.	.	.	.	.	.	.	.	.	.	.	.
8r	16cc	8r	8r	4r	4r	8r	.	.	.	.	.	.	.
.	16b	.	.	.	.	.	.	.	.	.	.	.	.
8aa-	16cc	8a-	8f	.	.	8ff	.	.	.	.	.	.	.
.	16b	.	.	.	.	.	.	.	.	.	.	.	.
8gg	16cc	8g	8e	8C	8C	8ee	.	.	.	.	.	.	.
.	16b	.	.	.	.	.	.	.	.	.	.	.	.
8r	16cc	8r	8r	4r	4r	8r	.	.	.	.	.	.	.
.	16b	.	.	.	.	.	.	.	.	.	.	.	.
8aa-	16cc	8a-	8f	.	.	8ff	.	.	.	.	.	.	.
.	16b	.	.	.	.	.	.	.	.	.	.	.	.
=64	=64	=64	=64	=64	=64	=64	=64	=64	=64	=64	=64	=64	=64
8gg	[2.cc	16g	16e	8C	8C	8ee	2.r	2.r	2.r	2.r	2.r	2.r	2.r
.	.	16f#	16d#	.	.	.	.	.	.	.	.	.	.
2r	.	16g	16e	3..r	3..r	2r	.	.	.	.	.	.	.
.	.	16f#	16d#	.	.	.	.	.	.	.	.	.	.
.	.	16g	16e	.	.	.	.	.	.	.	.	.	.
.	.	16f#	16d#	.	.	.	.	.	.	.	.	.	.
.	.	16g	16e	.	.	.	.	.	.	.	.	.	.
.	.	16g#	16e	.	.	.	.	.	.	.	.	.	.
.	.	16a	16f	.	.	.	.	.	.	.	.	.	.
.	.	16g#	16e	.	.	.	.	.	.	.	.	.	.
8r	.	16a	16f	.	.	8r	.	.	.	.	.	.	.
.	.	16g#	16e	.	.	.	.	.	.	.	.	.	.
.	.	.	.	24r	24r	.	.	.	.	.	.	.	.
=65	=65	=65	=65	=65	=65	=65	=65	=65	=65	=65	=65	=65	=65
2.r	2.cc_	16a	16f	4..r	4..r	2.r	2.r	2.r	2.r	2.r	2.r	2.r	2.r
.	.	16a	16f#	.	.	.	.	.	.	.	.	.	.
.	.	16b-	16g	.	.	.	.	.	.	.	.	.	.
.	.	16a	16f#	.	.	.	.	.	.	.	.	.	.
.	.	16b-	16g	.	.	.	.	.	.	.	.	.	.
.	.	16a	16f#	.	.	.	.	.	.	.	.	.	.
.	.	4.b-	4.g	.	.	.	.	.	.	.	.	.	.
.	.	.	.	16C	16C	.	.	.	.	.	.	.	.
.	.	.	.	16C#	16C#	.	.	.	.	.	.	.	.
.	.	.	.	16D	16D	.	.	.	.	.	.	.	.
.	.	.	.	16E-	16E-	.	.	.	.	.	.	.	.
.	.	.	.	16E	16E	.	.	.	.	.	.	.	.
=66	=66	=66	=66	=66	=66	=66	=66	=66	=66	=66	=66	=66	=66
2.r	8.cc	8.a	4f	4F	4F	2.r	2.r	2.r	2.r	2.r	2.r	2.r	2.r
.	16dd	16b-	.	.	.	.	.	.	.	.	.	.	.
.	8cc	8a	8f	8F	8F	.	.	.	.	.	.	.	.
.	4aa	4cc	4f	4F	4F	.	.	.	.	.	.	.	.
.	32gg	8a	8f	8F	8F	.	.	.	.	.	.	.	.
.	32ff	.	.	.	.	.	.	.	.	.	.	.	.
.	32ee	.	.	.	.	.	.	.	.	.	.	.	.
.	32dd	.	.	.	.	.	.	.	.	.	.	.	.
=67	=67	=67	=67	=67	=67	=67	=67	=67	=67	=67	=67	=67	=67
2.r	16cc	8d	8g	8G	8G	2.r	2.r	2.r	2.r	2.r	2.r	2.r	2.r
.	16b-	.	.	.	.	.	.	.	.	.	.	.	.
.	8b-	8d	8g	8G	8G	.	.	.	.	.	.	.	.
.	8b-	8d-	8g	8F	8F	.	.	.	.	.	.	.	.
.	8b-	8c	8g	8E	8E	.	.	.	.	.	.	.	.
.	8r	8r	8r	8r	8r	.	.	.	.	.	.	.	.
.	[8b-	8g	[8c	8E	8E	.	.	.	.	.	.	.	.
=68	=68	=68	=68	=68	=68	=68	=68	=68	=68	=68	=68	=68	=68
2.r	16b-]	8f	8c]	8F	8F	2.r	2.r	2.r	2.r	2.r	2.r	2.r	2.r
.	16g	.	.	.	.	.	.	.	.	.	.	.	.
.	16g#	8r	8r	8r	8r	.	.	.	.	.	.	.	.
.	16a	.	.	.	.	.	.	.	.	.	.	.	.
.	16b-	8f	8d	8D	8D	.	.	.	.	.	.	.	.
.	16b	.	.	.	.	.	.	.	.	.	.	.	.
.	16cc	8.f	8e-	8AA	8AA	.	.	.	.	.	.	.	.
.	16cc#	.	.	.	.	.	.	.	.	.	.	.	.
.	16dd	.	8d	8BB-	8BB-	.	.	.	.	.	.	.	.
.	16a	16f#	.	.	.	.	.	.	.	.	.	.	.
.	16b-	16g	8d	8GG	8GG	.	.	.	.	.	.	.	.
.	16g	16B-	.	.	.	.	.	.	.	.	.	.	.
=69	=69	=69	=69	=69	=69	=69	=69	=69	=69	=69	=69	=69	=69
2.r	4f	16A	4c	2C	2C	2.r	2.r	2.r	2r	2r	2.r	2.r	2.r
.	.	16G	.	.	.	.	.	.	.	.	.	.	.
.	.	16A-	.	.	.	.	.	.	.	.	.	.	.
.	.	16A	.	.	.	.	.	.	.	.	.	.	.
.	32e	16B-	8d	.	.	.	.	.	.	.	.	.	.
.	32f	.	.	.	.	.	.	.	.	.	.	.	.
.	32g	16B	.	.	.	.	.	.	.	.	.	.	.
.	32f	.	.	.	.	.	.	.	.	.	.	.	.
.	8e	8c	8G	.	.	.	.	.	.	.	.	.	.
.	4r	4r	4r	4r	4r	.	.	.	8g	8G	.	.	.
.	.	.	.	.	.	.	.	.	8g	8G	.	.	.
=70	=70	=70	=70	=70	=70	=70	=70	=70	=70	=70	=70	=70	=70
2.ee	4bb-	16e	2.B- 2.G	8C	8C	2.b-	2.e	2.B-	[2.g	[2.G	[2.cc	[2.c	4C
.	.	16c	.	.	.	.	.	.	.	.	.	.	.
.	.	16B-	.	8E	8E	.	.	.	.	.	.	.	.
.	.	16c	.	.	.	.	.	.	.	.	.	.	.
.	32aa	16e	.	8G	8G	.	.	.	.	.	.	.	4r
.	32gg	.	.	.	.	.	.	.	.	.	.	.	.
.	32ff	16c	.	.	.	.	.	.	.	.	.	.	.
.	32ee	.	.	.	.	.	.	.	.	.	.	.	.
.	16dd	16e	.	8c	8c	.	.	.	.	.	.	.	.
.	16cc	16c	.	.	.	.	.	.	.	.	.	.	.
.	8cc	16B-	.	4r	4r	.	.	.	.	.	.	.	8C
.	.	16c	.	.	.	.	.	.	.	.	.	.	.
.	8cc	16e	.	.	.	.	.	.	.	.	.	.	8C
.	.	16c	.	.	.	.	.	.	.	.	.	.	.
=71	=71	=71	=71	=71	=71	=71	=71	=71	=71	=71	=71	=71	=71
2.ff	8cc	16f	2.F 2.A	8F	8F	2.a	2.f	2.A	8g]	8G]	2.cc]	2.c]	4C
.	.	16c	.	.	.	.	.	.	.	.	.	.	.
.	8ff	16A	.	8C	8C	.	.	.	8cc	8c	.	.	.
.	.	16c	.	.	.	.	.	.	.	.	.	.	.
.	8aa	16f	.	8AA	8AA	.	.	.	8ee	8e	.	.	4r
.	.	16c	.	.	.	.	.	.	.	.	.	.	.
.	8ccc	16a	.	8FF	8FF	.	.	.	8gg	8g	.	.	.
.	.	16f	.	.	.	.	.	.	.	.	.	.	.
.	4r	16c	.	4r	4r	.	.	.	8ee	8e	.	.	8C
.	.	16f	.	.	.	.	.	.	.	.	.	.	.
.	.	16a	.	.	.	.	.	.	8cc	8c	.	.	8C
.	.	16f	.	.	.	.	.	.	.	.	.	.	.
=72	=72	=72	=72	=72	=72	=72	=72	=72	=72	=72	=72	=72	=72
2.ee	8.bb-	16e	2.B- 2.G	8C	8C	2.b-	2.e	2.B-	[2.g	[2.G	[2.cc	[2.c	4C
.	.	16c	.	.	.	.	.	.	.	.	.	.	.
.	.	16B-	.	8E	8E	.	.	.	.	.	.	.	.
.	32ccc	16c	.	.	.	.	.	.	.	.	.	.	.
.	32bb-	.	.	.	.	.	.	.	.	.	.	.	.
.	32aa	16e	.	8G	8G	.	.	.	.	.	.	.	4r
.	32gg	.	.	.	.	.	.	.	.	.	.	.	.
.	32ff	16c	.	.	.	.	.	.	.	.	.	.	.
.	32ee	.	.	.	.	.	.	.	.	.	.	.	.
.	16dd	16e	.	8c	8c	.	.	.	.	.	.	.	.
.	16cc	16c	.	.	.	.	.	.	.	.	.	.	.
.	8cc	16B-	.	4r	4r	.	.	.	.	.	.	.	8C
.	.	16c	.	.	.	.	.	.	.	.	.	.	.
.	8cc	16e	.	.	.	.	.	.	.	.	.	.	8C
.	.	16c	.	.	.	.	.	.	.	.	.	.	.
=73	=73	=73	=73	=73	=73	=73	=73	=73	=73	=73	=73	=73	=73
2.ff	16cc	16f	2.A 2.F	8F	8F	2.a	2.f	2.A	8g]	8G]	2.cc]	2.c]	4C
.	16cc	16c	.	.	.	.	.	.	.	.	.	.	.
.	16ff	16A	.	8C	8C	.	.	.	8cc	8c	.	.	.
.	16ff	16c	.	.	.	.	.	.	.	.	.	.	.
.	16aa	16f	.	8AA	8AA	.	.	.	8ee	8e	.	.	2r
.	16aa	16c	.	.	.	.	.	.	.	.	.	.	.
.	8ccc	16a	.	8FF	8FF	.	.	.	8gg	8g	.	.	.
.	.	16f	.	.	.	.	.	.	.	.	.	.	.
.	4r	16c	.	4r	4r	.	.	.	8ee	8e	.	.	.
.	.	16f	.	.	.	.	.	.	.	.	.	.	.
.	.	16a	.	.	.	.	.	.	8cc	8c	.	.	.
.	.	16cc	.	.	.	.	.	.	.	.	.	.	.
=74	=74	=74	=74	=74	=74	=74	=74	=74	=74	=74	=74	=74	=74
2.r	8.dd	4.cc	4.f	4.B-	4.B-	2.r	4.B-	4.B-	2.r	2.r	2.r	2.r	2.r
.	16ee-	.	.	.	.	.	.	.	.	.	.	.	.
.	8dd	.	.	.	.	.	.	.	.	.	.	.	.
.	8dd	4.b-	4.g	4.G	4.G	.	4.G	4.G	.	.	.	.	.
.	8b-	.	.	.	.	.	.	.	.	.	.	.	.
.	8dd	.	.	.	.	.	.	.	.	.	.	.	.
=75	=75	=75	=75	=75	=75	=75	=75	=75	=75	=75	=75	=75	=75
4.bb-	8dd	8b-	8g	4.E	4.E	4.gg	4.E	4.E	4.dd	4.g	2.r	2.r	2.r
.	8cc	8b-	8g	.	.	.	.	.	.	.	.	.	.
.	8cc	8b-	8g	.	.	.	.	.	.	.	.	.	.
8aa	16cc	8a	8f	8F	8F	8ff	8F	8F	8ee	8cc	.	.	.
.	16cc#	.	.	.	.	.	.	.	.	.	.	.	.
4r	16dd	4r	4r	4r	4r	4r	4r	4r	4r	4r	.	.	.
.	16ee-	.	.	.	.	.	.	.	.	.	.	.	.
.	16ee	.	.	.	.	.	.	.	.	.	.	.	.
.	16ff	.	.	.	.	.	.	.	.	.	.	.	.
=76	=76	=76	=76	=76	=76	=76	=76	=76	=76	=76	=76	=76	=76
[4.ff	[4.f	16A	[3..c	8C	8C	[4.ff	8C	8C	[4.cc	4.e	[2.cc	[2.c	2.r
.	.	16c	.	.	.	.	.	.	.	.	.	.	.
.	.	16A	.	8C	8C	.	8C	8C	.	.	.	.	.
.	.	16c	.	.	.	.	.	.	.	.	.	.	.
.	.	16A	.	8C	8C	.	8C	8C	.	.	.	.	.
.	.	16c	.	.	.	.	.	.	.	.	.	.	.
4ff]	4f]	16B-	.	8C	8C	4ff]	8C	8C	4cc]	4.g	.	.	.
.	.	16c	.	.	.	.	.	.	.	.	.	.	.
.	.	16B-	.	8C	8C	.	8C	8C	.	.	.	.	.
.	.	16c	.	.	.	.	.	.	.	.	.	.	.
.	.	.	24c 24C]	.	.	.	.	.	.	.	.	.	.
16aa	16a	16B-	8e	8C	8C	8ee	8C	8C	16ee	.	.	.	.
16gg	16g	16c	.	.	.	.	.	.	16dd	.	.	.	.
=77	=77	=77	=77	=77	=77	=77	=77	=77	=77	=77	=77	=77	=77
8ff	8f	8A	8f	8F	8F	8ff	8F	8F	8cc	8e	8cc]	8c]	2.r
8cc	8c	8c	8A	8F	8F	8a	8F	8F	8e	8c	8cc	8c	.
8aa	8a	8c	8A	8F	8F	8cc	8F	8F	8e	8c	8cc	8c	.
8ff	8f	8c	8A	8F	8F	8a	8F	8F	8e	8c	8cc	8c	.
4r	4r	4r	4r	4r	4r	4r	4r	4r	4r	4r	4r	4r	.
=78	=78	=78	=78	=78	=78	=78	=78	=78	=78	=78	=78	=78	=78
2.r	8cc	8g	8e-	8E-	8E-	2.r	2.r	2.r	2.r	2.r	2.r	2.r	2.r
.	8g	8g	8e-	8E-	8E-	.	.	.	.	.	.	.	.
.	8ee-	8g	8e-	8E-	8E-	.	.	.	.	.	.	.	.
.	8cc	8g	8e-	8E-	8E-	.	.	.	.	.	.	.	.
.	4r	4r	4r	4r	4r	.	.	.	.	.	.	.	.
=79	=79	=79	=79	=79	=79	=79	=79	=79	=79	=79	=79	=79	=79
8ccc	8ff#	8cc	8a 8d	8D	8D	8aa	8D	8D	2.r	2.r	2.r	2.r	2.r
8ccc	8cc	8cc	8a 8d	8D	8D	8aa	8D	8D	.	.	.	.	.
8ccc	8aa	8cc	8a 8d	8D	8D	8aa	8D	8D	.	.	.	.	.
8ccc	8ff#	8cc	8a 8d	8D	8D	8aa	8D	8D	.	.	.	.	.
4r	24r	4r	4r	4r	4r	4r	4r	4r	.	.	.	.	.
.	24cc	.	.	.	.	.	.	.	.	.	.	.	.
.	24b	.	.	.	.	.	.	.	.	.	.	.	.
.	24cc	.	.	.	.	.	.	.	.	.	.	.	.
.	24ee-	.	.	.	.	.	.	.	.	.	.	.	.
.	24cc	.	.	.	.	.	.	.	.	.	.	.	.
=80	=80	=80	=80	=80	=80	=80	=80	=80	=80	=80	=80	=80	=80
2.r	8b	8r	8r	8r	8r	2.r	2.r	2.r	2.r	2.r	2.r	2.r	2.r
.	24r	8g	8d	8G	8G	.	.	.	.	.	.	.	.
.	24b-	.	.	.	.	.	.	.	.	.	.	.	.
.	24a	.	.	.	.	.	.	.	.	.	.	.	.
.	24b-	4r	4r	4r	4r	.	.	.	.	.	.	.	.
.	24dd	.	.	.	.	.	.	.	.	.	.	.	.
.	24b-	.	.	.	.	.	.	.	.	.	.	.	.
.	8gg	.	.	.	.	.	.	.	.	.	.	.	.
.	24r	8g	8B-	8E	8E	.	.	.	.	.	.	.	.
.	24b-	.	.	.	.	.	.	.	.	.	.	.	.
.	24a	.	.	.	.	.	.	.	.	.	.	.	.
.	24b-	8r	8r	8r	8r	.	.	.	.	.	.	.	.
.	24dd	.	.	.	.	.	.	.	.	.	.	.	.
.	24b-	.	.	.	.	.	.	.	.	.	.	.	.
=81	=81	=81	=81	=81	=81	=81	=81	=81	=81	=81	=81	=81	=81
2.r	8a	8r	8r	8r	8r	2.r	2.r	2.r	2.r	2.r	2.r	2.r	2.r
.	24r	8f	8c	8F	8F	.	.	.	.	.	.	.	.
.	24f	.	.	.	.	.	.	.	.	.	.	.	.
.	24e	.	.	.	.	.	.	.	.	.	.	.	.
.	24f	6..r	6..r	6..r	6..r	.	.	.	.	.	.	.	.
.	24a	.	.	.	.	.	.	.	.	.	.	.	.
.	24f	.	.	.	.	.	.	.	.	.	.	.	.
.	8ff	.	.	.	.	.	.	.	.	.	.	.	.
.	8ff	.	.	.	.	.	.	.	.	.	.	.	.
.	.	24f	24d	24D	24D	.	.	.	.	.	.	.	.
.	.	24e	24c#	24C#	24C#	.	.	.	.	.	.	.	.
.	8ff	24f	24d	24D	24D	.	.	.	.	.	.	.	.
.	.	24a	24f	24F	24F	.	.	.	.	.	.	.	.
.	.	24f	24d	24D	24D	.	.	.	.	.	.	.	.
=82	=82	=82	=82	=82	=82	=82	=82	=82	=82	=82	=82	=82	=82
2.r	8ff	8dd	4.B-	[3..BB-	[3..BB-	2.r	2.r	2.r	2.r	2.r	2.r	2.r	2.r
.	8ee	8cc	.	.	.	.	.	.	.	.	.	.	.
.	8dd	8b-	.	.	.	.	.	.	.	.	.	.	.
.	8cc	8a	4.d	.	.	.	.	.	.	.	.	.	.
.	8b-	8g	.	.	.	.	.	.	.	.	.	.	.
.	.	.	.	24BB-]	24BB-]	.	.	.	.	.	.	.	.
.	8a	8f	.	8BB	8BB	.	.	.	.	.	.	.	.
=83	=83	=83	=83	=83	=83	=83	=83	=83	=83	=83	=83	=83	=83
4.r	16cc	16a	8c	4.C	4.C	4.r	2.r	2.r	4.r	4.r	4.r	4.r	4.r
.	16b	16g#	.	.	.	.	.	.	.	.	.	.	.
.	16cc	16a	8c	.	.	.	.	.	.	.	.	.	.
.	16a	16f	.	.	.	.	.	.	.	.	.	.	.
.	8g	8e	8c	.	.	.	.	.	.	.	.	.	.
4cc	4r	4r	[4.c	4r	4r	4cc	.	.	4g	4G	4cc	4c	4C
8r	16b-	8e	.	8BB-	8BB-	8r	.	.	8r	8r	8r	8r	8r
.	32a	.	.	.	.	.	.	.	.	.	.	.	.
.	32g	.	.	.	.	.	.	.	.	.	.	.	.
=84	=84	=84	=84	=84	=84	=84	=84	=84	=84	=84	=84	=84	=84
4.r	8.f	4f	2.c]	8AA	8AA	4.r	2.r	2.r	4.r	4.r	4.r	4.r	4.r
.	.	.	.	8FF	8FF	.	.	.	.	.	.	.	.
.	32g	.	.	.	.	.	.	.	.	.	.	.	.
.	32a	.	.	.	.	.	.	.	.	.	.	.	.
.	8g	8e	.	8C	8C	.	.	.	.	.	.	.	.
4cc	4r	4r	.	4r	4r	4cc	.	.	4g	4G	4cc	4c	4C
8r	16bb-	8ee	.	8B-	8B-	8r	.	.	8r	8r	8r	8r	8r
.	32aa	.	.	.	.	.	.	.	.	.	.	.	.
.	32gg	.	.	.	.	.	.	.	.	.	.	.	.
=85	=85	=85	=85	=85	=85	=85	=85	=85	=85	=85	=85	=85	=85
2.r	8.ff	4ff	4.cc	8A	8A	2.r	2.r	2.r	2.r	2.r	2.r	2.r	2.r
.	.	.	.	8F	8F	.	.	.	.	.	.	.	.
.	32gg	.	.	.	.	.	.	.	.	.	.	.	.
.	32aa	.	.	.	.	.	.	.	.	.	.	.	.
.	8gg	8ee	.	8c	8c	.	.	.	.	.	.	.	.
.	8cc	4.r	4.r	4.r	4.r	.	.	.	.	.	.	.	.
.	8cc	.	.	.	.	.	.	.	.	.	.	.	.
.	8cc	.	.	.	.	.	.	.	.	.	.	.	.
=86	=86	=86	=86	=86	=86	=86	=86	=86	=86	=86	=86	=86	=86
[2.ff	4cc	16c	8A	8AA	8AA	4.cc	8AA	8AA	8cc	8c	2.r	2.r	2.r
.	.	16f	.	.	.	.	.	.	.	.	.	.	.
.	.	16c	8A	8A	8A	.	8A	8A	8cc	8c	.	.	.
.	.	16f	.	.	.	.	.	.	.	.	.	.	.
.	8ff	16c	8A	8A	8A	.	8A	8A	8cc	8c	.	.	.
.	.	16f	.	.	.	.	.	.	.	.	.	.	.
.	32ff	16e-	8A	8A	8A	4.ee-	8A	8A	8cc	8c	.	.	.
.	16.ee-	.	.	.	.	.	.	.	.	.	.	.	.
.	.	16f	.	.	.	.	.	.	.	.	.	.	.
.	32ee-	16e-	8A	8A	8A	.	8A	8A	8cc	8c	.	.	.
.	16.cc#	.	.	.	.	.	.	.	.	.	.	.	.
.	.	16f	.	.	.	.	.	.	.	.	.	.	.
.	32cc#	16e-	8A	8A	8A	.	8A	8A	8cc	8c	.	.	.
.	16.dd	.	.	.	.	.	.	.	.	.	.	.	.
.	.	16f	.	.	.	.	.	.	.	.	.	.	.
=87	=87	=87	=87	=87	=87	=87	=87	=87	=87	=87	=87	=87	=87
8ff]	8dd	8d	8B-	8B-	8B-	8dd	8B-	8B-	8cc	8c	2.r	2.r	2.r
2r	4r	3..r	4r	3..r	3..r	2r	2r	2r	2r	2r	.	.	.
.	16f#	.	16F#	.	.	.	.	.	.	.	.	.	.
.	16g	.	16G	.	.	.	.	.	.	.	.	.	.
.	16a	.	16A	.	.	.	.	.	.	.	.	.	.
.	16b-	.	16B-	.	.	.	.	.	.	.	.	.	.
8r	16cc	.	16c	.	.	8r	8r	8r	8r	8r	.	.	.
.	16dd	.	16d	.	.	.	.	.	.	.	.	.	.
.	.	24r	.	24r	24r	.	.	.	.	.	.	.	.
=88	=88	=88	=88	=88	=88	=88	=88	=88	=88	=88	=88	=88	=88
2.r	16dd	16B-	16d	4.c	4.c	2.r	2.r	2.r	2.r	2.r	2.r	2.r	2.r
.	16cc	16A	16c	.	.	.	.	.	.	.	.	.	.
.	16b-	16d	16B-	.	.	.	.	.	.	.	.	.	.
.	16a	16c	16A	.	.	.	.	.	.	.	.	.	.
.	16g	16B-	16G	.	.	.	.	.	.	.	.	.	.
.	16f	16A	16F	.	.	.	.	.	.	.	.	.	.
.	4f	4c	4G	4C	4C	.	.	.	.	.	.	.	.
.	16a	8e	8B-	8C#	8C#	.	.	.	.	.	.	.	.
.	16g	.	.	.	.	.	.	.	.	.	.	.	.
=89	=89	=89	=89	=89	=89	=89	=89	=89	=89	=89	=89	=89	=89
2.r	4f	4.B	4.A-	2D	2D	2.r	2.r	2.r	2.r	2.r	2.r	2.r	2.r
.	32ff	.	.	.	.	.	.	.	.	.	.	.	.
.	32ee	.	.	.	.	.	.	.	.	.	.	.	.
.	32ff	.	.	.	.	.	.	.	.	.	.	.	.
.	32gg	.	.	.	.	.	.	.	.	.	.	.	.
.	8aa-	8b	8f	.	.	.	.	.	.	.	.	.	.
.	4r	4r	4r	4r	4r	.	.	.	.	.	.	.	.
=90	=90	=90	=90	=90	=90	=90	=90	=90	=90	=90	=90	=90	=90
[2.ccc	4.r	4.r	4.r	4.r	4.r	[2.cc	2.r	2.r	[2.g	[2.G	8cc	8c	8C
.	.	.	.	.	.	.	.	.	.	.	8cc	8c	8C
.	.	.	.	.	.	.	.	.	.	.	8cc	8c	8C
.	8cc	24A-	8F	8FF	8FF	.	.	.	.	.	8cc	8c	8C
.	.	24c	.	.	.	.	.	.	.	.	.	.	.
.	.	24A-	.	.	.	.	.	.	.	.	.	.	.
.	8f	24A-	8A-	8AA-	8AA-	.	.	.	.	.	8cc	8c	8C
.	.	24c	.	.	.	.	.	.	.	.	.	.	.
.	.	24A-	.	.	.	.	.	.	.	.	.	.	.
.	8e	24G	8c	8C	8C	.	.	.	.	.	8cc	8c	8C
.	.	24B-	.	.	.	.	.	.	.	.	.	.	.
.	.	24G	.	.	.	.	.	.	.	.	.	.	.
=91	=91	=91	=91	=91	=91	=91	=91	=91	=91	=91	=91	=91	=91
2.ccc_	8.f	24A-	8f	8F	8F	2.cc_	2.r	2.r	2.g_	2.G_	8cc	8c	8C
.	.	24c	.	.	.	.	.	.	.	.	.	.	.
.	.	24A-	.	.	.	.	.	.	.	.	.	.	.
.	.	24f	8A-	8AA-	8AA-	.	.	.	.	.	8cc	8c	8C
.	.	24c	.	.	.	.	.	.	.	.	.	.	.
.	32g	.	.	.	.	.	.	.	.	.	.	.	.
.	32a-	24f	.	.	.	.	.	.	.	.	.	.	.
.	8g	24e	8c	8C	8C	.	.	.	.	.	8cc	8c	8C
.	.	24c	.	.	.	.	.	.	.	.	.	.	.
.	.	24e	.	.	.	.	.	.	.	.	.	.	.
.	8ccc	24a-	8F	8F	8F	.	.	.	.	.	8cc	8c	8C
.	.	24f	.	.	.	.	.	.	.	.	.	.	.
.	.	24a-	.	.	.	.	.	.	.	.	.	.	.
.	8ff	24cc	8A-	8A-	8A-	.	.	.	.	.	8cc	8c	8C
.	.	24a-	.	.	.	.	.	.	.	.	.	.	.
.	.	24cc	.	.	.	.	.	.	.	.	.	.	.
.	8ee	24b-	8c	8c	8c	.	.	.	.	.	8cc	8c	8C
.	.	24g	.	.	.	.	.	.	.	.	.	.	.
.	.	24b-	.	.	.	.	.	.	.	.	.	.	.
=92	=92	=92	=92	=92	=92	=92	=92	=92	=92	=92	=92	=92	=92
4.ccc]	8.ff	24a-	8f	8f	8f	4.cc]	2.r	2.r	4.g]	4.G]	4.cc	4.c	4C
.	.	24cc	.	.	.	.	.	.	.	.	.	.	.
.	.	24b-	.	.	.	.	.	.	.	.	.	.	.
.	.	24a-	8a-	8A-	8A-	.	.	.	.	.	.	.	.
.	.	24g	.	.	.	.	.	.	.	.	.	.	.
.	32gg	.	.	.	.	.	.	.	.	.	.	.	.
.	32aa-	24f	.	.	.	.	.	.	.	.	.	.	.
.	8gg	24e	8cc	8c	8c	.	.	.	.	.	.	.	2r
.	.	24d	.	.	.	.	.	.	.	.	.	.	.
.	.	24c	.	.	.	.	.	.	.	.	.	.	.
4.r	8ccc	8cc	4.r	4.r	4.r	4.r	.	.	4.r	4.r	4.r	4.r	.
.	8ccc	8cc	.	.	.	.	.	.	.	.	.	.	.
.	8ccc	8cc	.	.	.	.	.	.	.	.	.	.	.
=93	=93	=93	=93	=93	=93	=93	=93	=93	=93	=93	=93	=93	=93
[2.ff	4.ccc	4.cc	16c	8AA	8AA	4.cc	8AA	8AA	8cc	8c	2.r	2.r	2.r
.	.	.	16f	.	.	.	.	.	.	.	.	.	.
.	.	.	16c	8A	8A	.	8A	8A	8cc	8c	.	.	.
.	.	.	16f	.	.	.	.	.	.	.	.	.	.
.	.	.	16c	8A	8A	.	8A	8A	8cc	8c	.	.	.
.	.	.	16f	.	.	.	.	.	.	.	.	.	.
.	4.ccc#	4.cc#	16e-	8A	8A	4.ee-	8A	8A	8cc	8c	.	.	.
.	.	.	16f	.	.	.	.	.	.	.	.	.	.
.	.	.	16e-	8A	8A	.	8A	8A	8cc	8c	.	.	.
.	.	.	16f	.	.	.	.	.	.	.	.	.	.
.	.	.	16e-	8A	8A	.	8A	8A	8cc	8c	.	.	.
.	.	.	16f	.	.	.	.	.	.	.	.	.	.
=94	=94	=94	=94	=94	=94	=94	=94	=94	=94	=94	=94	=94	=94
8ff]	16ccc#	16cc#	2.d 2.f	4.B-	4.B-	8dd	8B-	8B-	8cc	8c	2.r	2.r	2.r
.	16ddd	16dd	.	.	.	.	.	.	.	.	.	.	.
2r	16ddd	4dd	.	.	.	2r	2r	2r	2r	2r	.	.	.
.	16ddd	.	.	.	.	.	.	.	.	.	.	.	.
.	16ddd	.	.	.	.	.	.	.	.	.	.	.	.
.	16ddd	.	.	.	.	.	.	.	.	.	.	.	.
.	16ddd	4.g	.	4.B	4.B	.	.	.	.	.	.	.	.
.	16dd	.	.	.	.	.	.	.	.	.	.	.	.
.	16ff	.	.	.	.	.	.	.	.	.	.	.	.
.	16ff	.	.	.	.	.	.	.	.	.	.	.	.
8r	16ff	.	.	.	.	8r	8r	8r	8r	8r	.	.	.
.	16ff	.	.	.	.	.	.	.	.	.	.	.	.
=95	=95	=95	=95	=95	=95	=95	=95	=95	=95	=95	=95	=95	=95
2.r	16ff	4..a	4.f 4.c	4.c	4.c	2.r	2.r	2.r	2.r	2.r	2.r	2.r	2.r
.	16ee	.	.	.	.	.	.	.	.	.	.	.	.
.	16dd	.	.	.	.	.	.	.	.	.	.	.	.
.	16cc	.	.	.	.	.	.	.	.	.	.	.	.
.	16b	.	.	.	.	.	.	.	.	.	.	.	.
.	16cc	.	.	.	.	.	.	.	.	.	.	.	.
.	16cc	.	8r	4C	4C	.	.	.	.	.	.	.	.
.	16b-	16g	.	.	.	.	.	.	.	.	.	.	.
.	8a	8f	8c	.	.	.	.	.	.	.	.	.	.
.	8g	8e	8B-	8C#	8C#	.	.	.	.	.	.	.	.
=96	=96	=96	=96	=96	=96	=96	=96	=96	=96	=96	=96	=96	=96
8r	4g	4c#	4B-	4.D	4.D	8r	4e	4c#	2.r	2.r	2.r	2.r	2.r
8ccc#	.	.	.	.	.	8cc#	.	.	.	.	.	.	.
8ddd	8f#	8d	8A	.	.	8dd	8f#	8d	.	.	.	.	.
8r	4cc	4f#	4e-	4.GG	4.GG	8r	4e-	4A	.	.	.	.	.
8ff#	.	.	.	.	.	8f#	.	.	.	.	.	.	.
8gg	8b	8g	8d	.	.	8g	8d	8B	.	.	.	.	.
=97	=97	=97	=97	=97	=97	=97	=97	=97	=97	=97	=97	=97	=97
8bb-	8dd	8b-	8g	8E	8E	8dd	2.r	2.r	2.r	2.r	2.r	2.r	2.r
8r	8r	8r	8r	8r	8r	8r	.	.	.	.	.	.	.
8aa	8cc	8a	8c	8F	8F	8cc	.	.	.	.	.	.	.
8gg	8b-	8g	8d	8BB-	8BB-	8b-	.	.	.	.	.	.	.
8ff	8a	8f	8c	8C	8C	8a	.	.	.	.	.	.	.
8ee	8g	8e	8B-	8C#	8C#	8g	.	.	.	.	.	.	.
=98	=98	=98	=98	=98	=98	=98	=98	=98	=98	=98	=98	=98	=98
8r	4g	4c#	4B-	4.D	4.D	8r	4e	4c#	2.r	2.r	2.r	2.r	2.r
8ccc#	.	.	.	.	.	8cc#	.	.	.	.	.	.	.
8ddd	8f#	8d	8A	.	.	8dd	8f#	8d	.	.	.	.	.
8r	4cc	4f#	4e-	4.GG	4.GG	8r	4e-	4A	.	.	.	.	.
8ff#	.	.	.	.	.	8f#	.	.	.	.	.	.	.
8gg	8b	8g	8d	.	.	8g	8d	8B	.	.	.	.	.
=99	=99	=99	=99	=99	=99	=99	=99	=99	=99	=99	=99	=99	=99
8bb-	8dd	8b-	8g	8E	8E	8dd	2.r	2.r	2.r	2.r	2.r	2.r	2.r
8r	8r	8r	8r	8r	8r	8r	.	.	.	.	.	.	.
8aa	8cc	8a	8c	8F	8F	8cc	.	.	.	.	.	.	.
8gg	8b-	8g	8d	8BB-	8BB-	8b-	.	.	.	.	.	.	.
8ff	8a	8f	8c	8C	8C	8a	.	.	.	.	.	.	.
8ee	8g	8e	8B-	8C	8C	8g	.	.	.	.	.	.	.
=100	=100	=100	=100	=100	=100	=100	=100	=100	=100	=100	=100	=100	=100
4ff	8f	4f	4A	4FF	4FF	4f	8r	8r	8r	8r	8r	8r	8r
.	4r	.	.	.	.	.	8C	8CC	8g	8G	8cc	8c	8C
2r	.	2r	2r	2r	2r	2r	8C	8CC	8g	8G	8cc	8c	8C
.	4.r	.	.	.	.	.	8C	8CC	8g	8G	8cc	8c	8C
.	.	.	.	.	.	.	8C	8CC	8g	8G	8cc	8c	8C
.	.	.	.	.	.	.	8C	8CC	8g	8G	8cc	8c	8C
=101	=101	=101	=101	=101	=101	=101	=101	=101	=101	=101	=101	=101	=101
4.gg	4.ccc	24g	8c	8C	8C	2.ee	[2.C	[2.CC	[2.g	[2.G	[2.cc	[2.c	2.C
.	.	24b-	.	.	.	.	.	.	.	.	.	.	.
.	.	24cc	.	.	.	.	.	.	.	.	.	.	.
.	.	24ee	8c	8c	8c	.	.	.	.	.	.	.	.
.	.	24cc	.	.	.	.	.	.	.	.	.	.	.
.	.	24b-	.	.	.	.	.	.	.	.	.	.	.
.	.	24ee	8c	8c	8c	.	.	.	.	.	.	.	.
.	.	24cc	.	.	.	.	.	.	.	.	.	.	.
.	.	24b-	.	.	.	.	.	.	.	.	.	.	.
4.bb-	[6..gg	24g	8c	8c	8c	.	.	.	.	.	.	.	.
.	.	24b-	.	.	.	.	.	.	.	.	.	.	.
.	.	24cc	.	.	.	.	.	.	.	.	.	.	.
.	.	24ee	8c	8c	8c	.	.	.	.	.	.	.	.
.	.	24cc	.	.	.	.	.	.	.	.	.	.	.
.	.	24b-	.	.	.	.	.	.	.	.	.	.	.
.	.	24ee	8c	8c	8c	.	.	.	.	.	.	.	.
.	48gg]	24cc	.	.	.	.	.	.	.	.	.	.	.
.	32ff	.	.	.	.	.	.	.	.	.	.	.	.
.	32gg	24b-	.	.	.	.	.	.	.	.	.	.	.
=102	=102	=102	=102	=102	=102	=102	=102	=102	=102	=102	=102	=102	=102
4aa	4aa	4ff 4a	4c	4F	4F	4ff	8C]	8CC]	8g]	8G]	8cc]	8c]	8C
.	.	.	.	.	.	.	8C	8CC	8g	8G	8cc	8c	8C
2r	2r	2r	2r	2r	2r	2r	8C	8CC	8g	8G	8cc	8c	8C
.	.	.	.	.	.	.	8C	8CC	8g	8G	8cc	8c	8C
.	.	.	.	.	.	.	8C	8CC	8g	8G	8cc	8c	8C
.	.	.	.	.	.	.	8C	8CC	8g	8G	8cc	8c	8C
=103	=103	=103	=103	=103	=103	=103	=103	=103	=103	=103	=103	=103	=103
4.ee	4.gg	24c	8C	8C	8C	2.b-	[2.C	2.CC	[2.g	2.G	[2.cc	[2.c	2.C
.	.	24g	.	.	.	.	.	.	.	.	.	.	.
.	.	24b-	.	.	.	.	.	.	.	.	.	.	.
.	.	24cc	8c	8C	8C	.	.	.	.	.	.	.	.
.	.	24b-	.	.	.	.	.	.	.	.	.	.	.
.	.	24g	.	.	.	.	.	.	.	.	.	.	.
.	.	24cc	8c	8C	8C	.	.	.	.	.	.	.	.
.	.	24b-	.	.	.	.	.	.	.	.	.	.	.
.	.	24g	.	.	.	.	.	.	.	.	.	.	.
4.gg	[6..ee	24c	8c	8C	8C	.	.	.	.	.	.	.	.
.	.	24g	.	.	.	.	.	.	.	.	.	.	.
.	.	24b-	.	.	.	.	.	.	.	.	.	.	.
.	.	24cc	8c	8C	8C	.	.	.	.	.	.	.	.
.	.	24b-	.	.	.	.	.	.	.	.	.	.	.
.	.	24g	.	.	.	.	.	.	.	.	.	.	.
.	.	24cc	8c	8C	8C	.	.	.	.	.	.	.	.
.	48ee]	24b-	.	.	.	.	.	.	.	.	.	.	.
.	32dd	.	.	.	.	.	.	.	.	.	.	.	.
.	32ee	24g	.	.	.	.	.	.	.	.	.	.	.
=104	=104	=104	=104	=104	=104	=104	=104	=104	=104	=104	=104	=104	=104
8ff	8ff	8a	8c	8FF	8FF	8a	8C]	8FF	8g]	8c	8cc]	8c]	8C
8ff	8f 8A	8f 8A	8c	8FF	8FF	8a	8F	8FF	8e	8c	8cc	8c	8C
8ff	8f 8A	8f 8A	8c	8FF	8FF	8a	8F	8FF	8e	8c	8cc	8c	8C
8ff	8f 8A	8f 8A	8c	8FF	8FF	8a	8F	8FF	8e	8c	8cc	8c	8C
4r	4r	4r	4r	4r	4r	4r	4r	4r	4r	4r	4r	4r	4r
==	==	==	==	==	==	==	==	==	==	==	==	==	==
*-	*-	*-	*-	*-	*-	*-	*-	*-	*-	*-	*-	*-	*-
!!!RWG1: This file contains only pitch and duration data.
!!!RWG2: Transposing instruments are not transposed.
!!!RWG3: Spines may have incompatible meters.
!!!RWG4: Durations of rests and tied notes may be interpreted.
!!!RWG: Key is interpreted using the Humdrum key tool.
!!!OPT: Linz
!!!AFT: stage1
!!!END: 1997/04/15
!!format changes:
!!content changes:
!!public access: complete
!!!KEY: 3850901488
!!!EMD: Converted from MuseData to Humdrum Dec 16, 2000, by Andreas Kornstaedt using muse2kern.
